
(Makerbot Industries)
(This file contains digital fabrication directives in gcode format)
(For your 3D printer)
(http://wiki.makerbot.com/gcode)
(* Generated by Miracle-Grue v 0.04 alpha)
(* 2012-5-29 15:41:46)
(* machine name: Dub dub dub)
(* firmware revision:unknown)
(* /home/jsadusk/breaktest.stl)
(* 1 extruder)
(* Extrude infills: 1)
(* first operation: Insets)
(* Extrude insets: 1)
(* Extrude outlines: 0)

(header [start_replicator_dual.gcode] begin)
(**** start.gcode for The Replicator, dual head ****)
M73 P0 (enable build progress)
G21 (set units to mm)
G90 (set positioning to absolute)
G10 P1 X0 Y0 Z0 (Designate T0 Offset)
G10 P2 X33 Y0 Z0 (Designate T1 Offset)
M109 S110 T0 (set HBP temperature)
M104 S220 T0 (set extruder temperature)
G54 (Recall offset cooridinate system)
(**** begin homing ****)
G162 X Y F2500 (home XY axes maximum)
G161 Z F1100 (home Z axis minimum)
G92 Z-5 (set Z to -5)
G1 Z0.0 (move Z to "0")
G161 Z F100 (home Z axis minimum)
M132 X Y Z A B (Recall stored home offsets for XYZAB axis)
(**** end homing ****)
G1 X-110.5 Y-74 Z150 F3300.0 (move to waiting position)
G130 X0 Y0 A0 B0 (Lower stepper Vrefs while heating)
M6 T0 (wait for toolhead, and HBP to reach temperature)
G130 X127 Y127 A127 B127 (Set Stepper motor Vref to defaults)
M108 R3.0 T0
G0 X-110.5 Y-74 (Position Nozzle)
G0 Z0.2      (Position Height)
M108 R4.0    (Set Extruder Speed)
M101         (Start Extruder)
G4 P1500     (Create Anchor)
M103         (Stop Extruder)
(**** end of start.gcode ****)
(header [start_replicator_dual.gcode] end)

(Slice 0, 1 Extruder)
G1 Z0.330 F500.000 (move Z)
(   Extruder 0)
( extruder 0 )
( GSWITCH T0 )
( TODO: add offset management to Gantry )

(inset 0/2 )
(  path 0/1, 5 points,  )
G1 X0.215 Y-7.186 Z0.330 F6000.000 (move into position)
G1 F798.000 A0.500 (squirt)
G1 X0.215 Y6.526 Z0.330 F1800.000 A1.032 (d: 13.712)
G1 X19.785 Y6.526 Z0.330 F1800.000 A1.792 (d: 23.8957)
G1 X19.785 Y-7.186 Z0.330 F1800.000 A2.324 (d: 19.57)
G1 X0.215 Y-7.186 Z0.330 F1800.000 A3.084 (d: 0)
G1 F798.000 A2.584 (snort)

(inset 1/2 )
(  path 0/1, 5 points,  )
G1 X0.602 Y-6.799 Z0.330 F6000.000 (move into position)
G1 F798.000 A3.084 (squirt)
G1 X0.602 Y6.139 Z0.330 F1800.000 A3.586 (d: 12.938)
G1 X19.398 Y6.139 Z0.330 F1800.000 A4.316 (d: 22.8184)
G1 X19.398 Y-6.799 Z0.330 F1800.000 A4.818 (d: 18.796)
G1 X0.602 Y-6.799 Z0.330 F1800.000 A5.548 (d: 0)
G1 F798.000 A5.048 (snort)

(infills: 1)
(  path 0/1, 64 points,  )
G1 X0.602 Y-6.352 Z0.330 F6000.000 (move into position)
G1 F798.000 A5.548 (squirt)
G1 X19.398 Y-6.352 Z0.330 F1800.000 A6.278 (d: 18.796)
G1 X19.398 Y-6.760 Z0.330 F1800.000 A6.294 (d: 18.8004)
G1 X0.602 Y-6.760 Z0.330 F1800.000 A7.023 (d: 0.4085)
G1 X0.602 Y-5.943 Z0.330 F1800.000 A7.055 (d: 0.4085)
G1 X19.398 Y-5.943 Z0.330 F1800.000 A7.785 (d: 18.8004)
G1 X19.398 Y-5.535 Z0.330 F1800.000 A7.800 (d: 18.8137)
G1 X0.602 Y-5.535 Z0.330 F1800.000 A8.530 (d: 0.817)
G1 X0.602 Y-5.126 Z0.330 F1800.000 A8.546 (d: 1.2255)
G1 X19.398 Y-5.126 Z0.330 F1800.000 A9.276 (d: 18.8359)
G1 X19.398 Y-4.718 Z0.330 F1800.000 A9.292 (d: 18.8669)
G1 X0.602 Y-4.718 Z0.330 F1800.000 A10.021 (d: 1.634)
G1 X0.602 Y-4.309 Z0.330 F1800.000 A10.037 (d: 2.0425)
G1 X19.398 Y-4.309 Z0.330 F1800.000 A10.767 (d: 18.9067)
G1 X19.398 Y-3.901 Z0.330 F1800.000 A10.783 (d: 18.9551)
G1 X0.602 Y-3.901 Z0.330 F1800.000 A11.512 (d: 2.451)
G1 X0.602 Y-3.492 Z0.330 F1800.000 A11.528 (d: 2.8595)
G1 X19.398 Y-3.492 Z0.330 F1800.000 A12.258 (d: 19.0123)
G1 X19.398 Y-3.084 Z0.330 F1800.000 A12.274 (d: 19.078)
G1 X0.602 Y-3.084 Z0.330 F1800.000 A13.003 (d: 3.268)
G1 X0.602 Y-2.675 Z0.330 F1800.000 A13.019 (d: 3.6765)
G1 X19.398 Y-2.675 Z0.330 F1800.000 A13.749 (d: 19.1522)
G1 X19.398 Y-2.267 Z0.330 F1800.000 A13.765 (d: 19.2348)
G1 X0.602 Y-2.267 Z0.330 F1800.000 A14.495 (d: 4.085)
G1 X0.602 Y-1.858 Z0.330 F1800.000 A14.510 (d: 4.4935)
G1 X19.398 Y-1.858 Z0.330 F1800.000 A15.240 (d: 19.3257)
G1 X19.398 Y-1.450 Z0.330 F1800.000 A15.256 (d: 19.4247)
G1 X0.602 Y-1.450 Z0.330 F1800.000 A15.986 (d: 4.902)
G1 X0.602 Y-1.041 Z0.330 F1800.000 A16.001 (d: 5.3105)
G1 X19.398 Y-1.041 Z0.330 F1800.000 A16.731 (d: 19.5318)
G1 X19.398 Y-0.633 Z0.330 F1800.000 A16.747 (d: 19.6468)
G1 X0.602 Y-0.633 Z0.330 F1800.000 A17.477 (d: 5.719)
G1 X0.602 Y-0.224 Z0.330 F1800.000 A17.493 (d: 6.1275)
G1 X19.398 Y-0.224 Z0.330 F1800.000 A18.222 (d: 19.7696)
G1 X19.398 Y0.184 Z0.330 F1800.000 A18.238 (d: 19.9)
G1 X0.602 Y0.184 Z0.330 F1800.000 A18.968 (d: 6.536)
G1 X0.602 Y0.593 Z0.330 F1800.000 A18.984 (d: 6.9445)
G1 X19.398 Y0.593 Z0.330 F1800.000 A19.713 (d: 20.0379)
G1 X19.398 Y1.001 Z0.330 F1800.000 A19.729 (d: 20.1831)
G1 X0.602 Y1.001 Z0.330 F1800.000 A20.459 (d: 7.353)
G1 X0.602 Y1.410 Z0.330 F1800.000 A20.475 (d: 7.7615)
G1 X19.398 Y1.410 Z0.330 F1800.000 A21.204 (d: 20.3354)
G1 X19.398 Y1.818 Z0.330 F1800.000 A21.220 (d: 20.4948)
G1 X0.602 Y1.818 Z0.330 F1800.000 A21.950 (d: 8.17)
G1 X0.602 Y2.227 Z0.330 F1800.000 A21.966 (d: 8.5785)
G1 X19.398 Y2.227 Z0.330 F1800.000 A22.695 (d: 20.6611)
G1 X19.398 Y2.635 Z0.330 F1800.000 A22.711 (d: 20.834)
G1 X0.602 Y2.635 Z0.330 F1800.000 A23.441 (d: 8.987)
G1 X0.602 Y3.044 Z0.330 F1800.000 A23.457 (d: 9.3955)
G1 X19.398 Y3.044 Z0.330 F1800.000 A24.187 (d: 21.0134)
G1 X19.398 Y3.452 Z0.330 F1800.000 A24.202 (d: 21.1992)
G1 X0.602 Y3.452 Z0.330 F1800.000 A24.932 (d: 9.804)
G1 X0.602 Y3.861 Z0.330 F1800.000 A24.948 (d: 10.2125)
G1 X19.398 Y3.861 Z0.330 F1800.000 A25.678 (d: 21.3912)
G1 X19.398 Y4.269 Z0.330 F1800.000 A25.694 (d: 21.5892)
G1 X0.602 Y4.269 Z0.330 F1800.000 A26.423 (d: 10.621)
G1 X0.602 Y4.678 Z0.330 F1800.000 A26.439 (d: 11.0295)
G1 X19.398 Y4.678 Z0.330 F1800.000 A27.169 (d: 21.7931)
G1 X19.398 Y5.086 Z0.330 F1800.000 A27.185 (d: 22.0027)
G1 X0.602 Y5.086 Z0.330 F1800.000 A27.914 (d: 11.438)
G1 X0.602 Y5.495 Z0.330 F1800.000 A27.930 (d: 11.8465)
G1 X19.398 Y5.495 Z0.330 F1800.000 A28.660 (d: 22.2178)
G1 X19.398 Y5.903 Z0.330 F1800.000 A28.676 (d: 22.4382)
G1 X0.602 Y5.903 Z0.330 F1800.000 A29.405 (d: 12.255)
G1 F798.000 A28.905 (snort)

(Slice 1, 1 Extruder)
G1 Z0.600 F500.000 (move Z)
(   Extruder 0)
( extruder 0 )
( GSWITCH T0 )
( TODO: add offset management to Gantry )

(inset 0/2 )
(  path 0/1, 5 points,  )
G1 X0.215 Y-7.456 Z0.600 F6000.000 (move into position)
G1 F798.000 A29.405 (squirt)
G1 X0.215 Y6.256 Z0.600 F4800.000 A29.938 (d: 13.712)
G1 X19.785 Y6.256 Z0.600 F4800.000 A30.697 (d: 23.8957)
G1 X19.785 Y-7.456 Z0.600 F4800.000 A31.230 (d: 19.57)
G1 X0.215 Y-7.456 Z0.600 F4800.000 A31.989 (d: 0)
G1 F798.000 A31.489 (snort)

(inset 1/2 )
(  path 0/1, 5 points,  )
G1 X0.602 Y-7.069 Z0.600 F6000.000 (move into position)
G1 F798.000 A31.989 (squirt)
G1 X0.602 Y5.869 Z0.600 F4800.000 A32.492 (d: 12.938)
G1 X19.398 Y5.869 Z0.600 F4800.000 A33.221 (d: 22.8184)
G1 X19.398 Y-7.069 Z0.600 F4800.000 A33.724 (d: 18.796)
G1 X0.602 Y-7.069 Z0.600 F4800.000 A34.453 (d: 0)
G1 F798.000 A33.953 (snort)

(infills: 1)
(  path 0/1, 92 points,  )
G1 X1.225 Y-7.069 Z0.600 F6000.000 (move into position)
G1 F798.000 A34.453 (squirt)
G1 X1.225 Y5.869 Z0.600 F4800.000 A34.956 (d: 12.938)
G1 X0.817 Y5.869 Z0.600 F4800.000 A34.972 (d: 12.9444)
G1 X0.817 Y-7.069 Z0.600 F4800.000 A35.474 (d: 0.4085)
G1 X1.634 Y-7.069 Z0.600 F4800.000 A35.505 (d: 0.4085)
G1 X1.634 Y5.869 Z0.600 F4800.000 A36.008 (d: 12.9444)
G1 X2.042 Y5.869 Z0.600 F4800.000 A36.024 (d: 12.9638)
G1 X2.042 Y-7.069 Z0.600 F4800.000 A36.526 (d: 0.817)
G1 X2.451 Y-7.069 Z0.600 F4800.000 A36.542 (d: 1.2255)
G1 X2.451 Y5.869 Z0.600 F4800.000 A37.044 (d: 12.9959)
G1 X2.859 Y5.869 Z0.600 F4800.000 A37.060 (d: 13.0408)
G1 X2.859 Y-7.069 Z0.600 F4800.000 A37.562 (d: 1.634)
G1 X3.268 Y-7.069 Z0.600 F4800.000 A37.578 (d: 2.0425)
G1 X3.268 Y5.869 Z0.600 F4800.000 A38.080 (d: 13.0982)
G1 X3.676 Y5.869 Z0.600 F4800.000 A38.096 (d: 13.1681)
G1 X3.676 Y-7.069 Z0.600 F4800.000 A38.598 (d: 2.451)
G1 X4.085 Y-7.069 Z0.600 F4800.000 A38.614 (d: 2.8595)
G1 X4.085 Y5.869 Z0.600 F4800.000 A39.117 (d: 13.2502)
G1 X4.494 Y5.869 Z0.600 F4800.000 A39.132 (d: 13.3443)
G1 X4.494 Y-7.069 Z0.600 F4800.000 A39.635 (d: 3.268)
G1 X4.902 Y-7.069 Z0.600 F4800.000 A39.651 (d: 3.6765)
G1 X4.902 Y5.869 Z0.600 F4800.000 A40.153 (d: 13.4502)
G1 X5.310 Y5.869 Z0.600 F4800.000 A40.169 (d: 13.5676)
G1 X5.310 Y-7.069 Z0.600 F4800.000 A40.671 (d: 4.085)
G1 X5.719 Y-7.069 Z0.600 F4800.000 A40.687 (d: 4.4935)
G1 X5.719 Y5.869 Z0.600 F4800.000 A41.189 (d: 13.6961)
G1 X6.127 Y5.869 Z0.600 F4800.000 A41.205 (d: 13.8355)
G1 X6.127 Y-7.069 Z0.600 F4800.000 A41.707 (d: 4.902)
G1 X6.536 Y-7.069 Z0.600 F4800.000 A41.723 (d: 5.3105)
G1 X6.536 Y5.869 Z0.600 F4800.000 A42.225 (d: 13.9855)
G1 X6.944 Y5.869 Z0.600 F4800.000 A42.241 (d: 14.1456)
G1 X6.944 Y-7.069 Z0.600 F4800.000 A42.743 (d: 5.719)
G1 X7.353 Y-7.069 Z0.600 F4800.000 A42.759 (d: 6.1275)
G1 X7.353 Y5.869 Z0.600 F4800.000 A43.262 (d: 14.3157)
G1 X7.761 Y5.869 Z0.600 F4800.000 A43.277 (d: 14.4952)
G1 X7.761 Y-7.069 Z0.600 F4800.000 A43.780 (d: 6.536)
G1 X8.170 Y-7.069 Z0.600 F4800.000 A43.796 (d: 6.9445)
G1 X8.170 Y5.869 Z0.600 F4800.000 A44.298 (d: 14.6839)
G1 X8.579 Y5.869 Z0.600 F4800.000 A44.314 (d: 14.8815)
G1 X8.579 Y-7.069 Z0.600 F4800.000 A44.816 (d: 7.353)
G1 X8.987 Y-7.069 Z0.600 F4800.000 A44.832 (d: 7.7615)
G1 X8.987 Y5.869 Z0.600 F4800.000 A45.334 (d: 15.0875)
G1 X9.396 Y5.869 Z0.600 F4800.000 A45.350 (d: 15.3017)
G1 X9.396 Y-7.069 Z0.600 F4800.000 A45.852 (d: 8.17)
G1 X9.804 Y-7.069 Z0.600 F4800.000 A45.868 (d: 8.5785)
G1 X9.804 Y5.869 Z0.600 F4800.000 A46.370 (d: 15.5236)
G1 X10.212 Y5.869 Z0.600 F4800.000 A46.386 (d: 15.753)
G1 X10.212 Y-7.069 Z0.600 F4800.000 A46.888 (d: 8.987)
G1 X10.621 Y-7.069 Z0.600 F4800.000 A46.904 (d: 9.3955)
G1 X10.621 Y5.869 Z0.600 F4800.000 A47.407 (d: 15.9896)
G1 X11.029 Y5.869 Z0.600 F4800.000 A47.422 (d: 16.233)
G1 X11.029 Y-7.069 Z0.600 F4800.000 A47.925 (d: 9.804)
G1 X11.438 Y-7.069 Z0.600 F4800.000 A47.941 (d: 10.2125)
G1 X11.438 Y5.869 Z0.600 F4800.000 A48.443 (d: 16.4829)
G1 X11.846 Y5.869 Z0.600 F4800.000 A48.459 (d: 16.7391)
G1 X11.846 Y-7.069 Z0.600 F4800.000 A48.961 (d: 10.621)
G1 X12.255 Y-7.069 Z0.600 F4800.000 A48.977 (d: 11.0295)
G1 X12.255 Y5.869 Z0.600 F4800.000 A49.479 (d: 17.0012)
G1 X12.663 Y5.869 Z0.600 F4800.000 A49.495 (d: 17.269)
G1 X12.663 Y-7.069 Z0.600 F4800.000 A49.997 (d: 11.438)
G1 X13.072 Y-7.069 Z0.600 F4800.000 A50.013 (d: 11.8465)
G1 X13.072 Y5.869 Z0.600 F4800.000 A50.515 (d: 17.5423)
G1 X13.480 Y5.869 Z0.600 F4800.000 A50.531 (d: 17.8207)
G1 X13.480 Y-7.069 Z0.600 F4800.000 A51.033 (d: 12.255)
G1 X13.889 Y-7.069 Z0.600 F4800.000 A51.049 (d: 12.6635)
G1 X13.889 Y5.869 Z0.600 F4800.000 A51.552 (d: 18.104)
G1 X14.297 Y5.869 Z0.600 F4800.000 A51.567 (d: 18.3921)
G1 X14.297 Y-7.069 Z0.600 F4800.000 A52.070 (d: 13.072)
G1 X14.706 Y-7.069 Z0.600 F4800.000 A52.086 (d: 13.4805)
G1 X14.706 Y5.869 Z0.600 F4800.000 A52.588 (d: 18.6846)
G1 X15.114 Y5.869 Z0.600 F4800.000 A52.604 (d: 18.9815)
G1 X15.114 Y-7.069 Z0.600 F4800.000 A53.106 (d: 13.889)
G1 X15.523 Y-7.069 Z0.600 F4800.000 A53.122 (d: 14.2975)
G1 X15.523 Y5.869 Z0.600 F4800.000 A53.624 (d: 19.2824)
G1 X15.931 Y5.869 Z0.600 F4800.000 A53.640 (d: 19.5872)
G1 X15.931 Y-7.069 Z0.600 F4800.000 A54.142 (d: 14.706)
G1 X16.340 Y-7.069 Z0.600 F4800.000 A54.158 (d: 15.1145)
G1 X16.340 Y5.869 Z0.600 F4800.000 A54.660 (d: 19.8957)
G1 X16.748 Y5.869 Z0.600 F4800.000 A54.676 (d: 20.2078)
G1 X16.748 Y-7.069 Z0.600 F4800.000 A55.178 (d: 15.523)
G1 X17.157 Y-7.069 Z0.600 F4800.000 A55.194 (d: 15.9315)
G1 X17.157 Y5.869 Z0.600 F4800.000 A55.697 (d: 20.5233)
G1 X17.566 Y5.869 Z0.600 F4800.000 A55.712 (d: 20.842)
G1 X17.566 Y-7.069 Z0.600 F4800.000 A56.215 (d: 16.34)
G1 X17.974 Y-7.069 Z0.600 F4800.000 A56.231 (d: 16.7485)
G1 X17.974 Y5.869 Z0.600 F4800.000 A56.733 (d: 21.1637)
G1 X18.383 Y5.869 Z0.600 F4800.000 A56.749 (d: 21.4885)
G1 X18.383 Y-7.069 Z0.600 F4800.000 A57.251 (d: 17.157)
G1 X18.791 Y-7.069 Z0.600 F4800.000 A57.267 (d: 17.5655)
G1 X18.791 Y5.869 Z0.600 F4800.000 A57.769 (d: 21.816)
G1 X19.200 Y5.869 Z0.600 F4800.000 A57.785 (d: 22.1463)
G1 X19.200 Y-7.069 Z0.600 F4800.000 A58.287 (d: 17.974)
G1 F798.000 A57.787 (snort)

(Slice 2, 1 Extruder)
G1 Z0.870 F500.000 (move Z)
(   Extruder 0)
( extruder 0 )
( GSWITCH T0 )
( TODO: add offset management to Gantry )

(inset 0/2 )
(  path 0/1, 5 points,  )
G1 X0.215 Y-7.726 Z0.870 F6000.000 (move into position)
G1 F798.000 A58.287 (squirt)
G1 X0.215 Y5.986 Z0.870 F4800.000 A58.820 (d: 13.712)
G1 X19.785 Y5.986 Z0.870 F4800.000 A59.579 (d: 23.8957)
G1 X19.785 Y-7.726 Z0.870 F4800.000 A60.112 (d: 19.57)
G1 X0.215 Y-7.726 Z0.870 F4800.000 A60.871 (d: 0)
G1 F798.000 A60.371 (snort)

(inset 1/2 )
(  path 0/1, 5 points,  )
G1 X0.602 Y-7.339 Z0.870 F6000.000 (move into position)
G1 F798.000 A60.871 (squirt)
G1 X0.602 Y5.599 Z0.870 F4800.000 A61.374 (d: 12.938)
G1 X19.398 Y5.599 Z0.870 F4800.000 A62.103 (d: 22.8184)
G1 X19.398 Y-7.339 Z0.870 F4800.000 A62.606 (d: 18.796)
G1 X0.602 Y-7.339 Z0.870 F4800.000 A63.335 (d: 0)
G1 F798.000 A62.835 (snort)

(infills: 1)
(  path 0/1, 64 points,  )
G1 X0.602 Y-6.760 Z0.870 F6000.000 (move into position)
G1 F798.000 A63.335 (squirt)
G1 X19.398 Y-6.760 Z0.870 F4800.000 A64.065 (d: 18.796)
G1 X19.398 Y-7.169 Z0.870 F4800.000 A64.081 (d: 18.8004)
G1 X0.602 Y-7.169 Z0.870 F4800.000 A64.810 (d: 0.4085)
G1 X0.602 Y-6.352 Z0.870 F4800.000 A64.842 (d: 0.4085)
G1 X19.398 Y-6.352 Z0.870 F4800.000 A65.572 (d: 18.8004)
G1 X19.398 Y-5.943 Z0.870 F4800.000 A65.588 (d: 18.8137)
G1 X0.602 Y-5.943 Z0.870 F4800.000 A66.317 (d: 0.817)
G1 X0.602 Y-5.535 Z0.870 F4800.000 A66.333 (d: 1.2255)
G1 X19.398 Y-5.535 Z0.870 F4800.000 A67.063 (d: 18.8359)
G1 X19.398 Y-5.126 Z0.870 F4800.000 A67.079 (d: 18.8669)
G1 X0.602 Y-5.126 Z0.870 F4800.000 A67.809 (d: 1.634)
G1 X0.602 Y-4.718 Z0.870 F4800.000 A67.824 (d: 2.0425)
G1 X19.398 Y-4.718 Z0.870 F4800.000 A68.554 (d: 18.9067)
G1 X19.398 Y-4.309 Z0.870 F4800.000 A68.570 (d: 18.9551)
G1 X0.602 Y-4.309 Z0.870 F4800.000 A69.300 (d: 2.451)
G1 X0.602 Y-3.901 Z0.870 F4800.000 A69.315 (d: 2.8595)
G1 X19.398 Y-3.901 Z0.870 F4800.000 A70.045 (d: 19.0123)
G1 X19.398 Y-3.492 Z0.870 F4800.000 A70.061 (d: 19.078)
G1 X0.602 Y-3.492 Z0.870 F4800.000 A70.791 (d: 3.268)
G1 X0.602 Y-3.084 Z0.870 F4800.000 A70.807 (d: 3.6765)
G1 X19.398 Y-3.084 Z0.870 F4800.000 A71.536 (d: 19.1522)
G1 X19.398 Y-2.675 Z0.870 F4800.000 A71.552 (d: 19.2348)
G1 X0.602 Y-2.675 Z0.870 F4800.000 A72.282 (d: 4.085)
G1 X0.602 Y-2.267 Z0.870 F4800.000 A72.298 (d: 4.4935)
G1 X19.398 Y-2.267 Z0.870 F4800.000 A73.027 (d: 19.3257)
G1 X19.398 Y-1.858 Z0.870 F4800.000 A73.043 (d: 19.4247)
G1 X0.602 Y-1.858 Z0.870 F4800.000 A73.773 (d: 4.902)
G1 X0.602 Y-1.450 Z0.870 F4800.000 A73.789 (d: 5.3105)
G1 X19.398 Y-1.450 Z0.870 F4800.000 A74.518 (d: 19.5318)
G1 X19.398 Y-1.041 Z0.870 F4800.000 A74.534 (d: 19.6468)
G1 X0.602 Y-1.041 Z0.870 F4800.000 A75.264 (d: 5.719)
G1 X0.602 Y-0.633 Z0.870 F4800.000 A75.280 (d: 6.1275)
G1 X19.398 Y-0.633 Z0.870 F4800.000 A76.009 (d: 19.7696)
G1 X19.398 Y-0.224 Z0.870 F4800.000 A76.025 (d: 19.9)
G1 X0.602 Y-0.224 Z0.870 F4800.000 A76.755 (d: 6.536)
G1 X0.602 Y0.184 Z0.870 F4800.000 A76.771 (d: 6.9445)
G1 X19.398 Y0.184 Z0.870 F4800.000 A77.501 (d: 20.0379)
G1 X19.398 Y0.593 Z0.870 F4800.000 A77.516 (d: 20.1831)
G1 X0.602 Y0.593 Z0.870 F4800.000 A78.246 (d: 7.353)
G1 X0.602 Y1.001 Z0.870 F4800.000 A78.262 (d: 7.7615)
G1 X19.398 Y1.001 Z0.870 F4800.000 A78.992 (d: 20.3354)
G1 X19.398 Y1.410 Z0.870 F4800.000 A79.008 (d: 20.4948)
G1 X0.602 Y1.410 Z0.870 F4800.000 A79.737 (d: 8.17)
G1 X0.602 Y1.818 Z0.870 F4800.000 A79.753 (d: 8.5785)
G1 X19.398 Y1.818 Z0.870 F4800.000 A80.483 (d: 20.6611)
G1 X19.398 Y2.227 Z0.870 F4800.000 A80.499 (d: 20.834)
G1 X0.602 Y2.227 Z0.870 F4800.000 A81.228 (d: 8.987)
G1 X0.602 Y2.635 Z0.870 F4800.000 A81.244 (d: 9.3955)
G1 X19.398 Y2.635 Z0.870 F4800.000 A81.974 (d: 21.0134)
G1 X19.398 Y3.044 Z0.870 F4800.000 A81.990 (d: 21.1992)
G1 X0.602 Y3.044 Z0.870 F4800.000 A82.719 (d: 9.804)
G1 X0.602 Y3.452 Z0.870 F4800.000 A82.735 (d: 10.2125)
G1 X19.398 Y3.452 Z0.870 F4800.000 A83.465 (d: 21.3912)
G1 X19.398 Y3.861 Z0.870 F4800.000 A83.481 (d: 21.5892)
G1 X0.602 Y3.861 Z0.870 F4800.000 A84.210 (d: 10.621)
G1 X0.602 Y4.269 Z0.870 F4800.000 A84.226 (d: 11.0295)
G1 X19.398 Y4.269 Z0.870 F4800.000 A84.956 (d: 21.7931)
G1 X19.398 Y4.678 Z0.870 F4800.000 A84.972 (d: 22.0027)
G1 X0.602 Y4.678 Z0.870 F4800.000 A85.702 (d: 11.438)
G1 X0.602 Y5.086 Z0.870 F4800.000 A85.717 (d: 11.8465)
G1 X19.398 Y5.086 Z0.870 F4800.000 A86.447 (d: 22.2178)
G1 X19.398 Y5.495 Z0.870 F4800.000 A86.463 (d: 22.4382)
G1 X0.602 Y5.495 Z0.870 F4800.000 A87.193 (d: 12.255)
G1 F798.000 A86.693 (snort)

(Slice 3, 1 Extruder)
G1 Z1.140 F500.000 (move Z)
(   Extruder 0)
( extruder 0 )
( GSWITCH T0 )
( TODO: add offset management to Gantry )

(inset 0/2 )
(  path 0/1, 5 points,  )
G1 X0.215 Y-7.996 Z1.140 F6000.000 (move into position)
G1 F798.000 A87.193 (squirt)
G1 X0.215 Y5.716 Z1.140 F4800.000 A87.725 (d: 13.712)
G1 X19.785 Y5.716 Z1.140 F4800.000 A88.485 (d: 23.8957)
G1 X19.785 Y-7.996 Z1.140 F4800.000 A89.017 (d: 19.57)
G1 X0.215 Y-7.996 Z1.140 F4800.000 A89.777 (d: 0)
G1 F798.000 A89.277 (snort)

(inset 1/2 )
(  path 0/1, 5 points,  )
G1 X0.602 Y-7.609 Z1.140 F6000.000 (move into position)
G1 F798.000 A89.777 (squirt)
G1 X0.602 Y5.329 Z1.140 F4800.000 A90.279 (d: 12.938)
G1 X19.398 Y5.329 Z1.140 F4800.000 A91.009 (d: 22.8184)
G1 X19.398 Y-7.609 Z1.140 F4800.000 A91.511 (d: 18.796)
G1 X0.602 Y-7.609 Z1.140 F4800.000 A92.241 (d: 0)
G1 F798.000 A91.741 (snort)

(infills: 1)
(  path 0/1, 92 points,  )
G1 X1.225 Y-7.609 Z1.140 F6000.000 (move into position)
G1 F798.000 A92.241 (squirt)
G1 X1.225 Y5.329 Z1.140 F4800.000 A92.743 (d: 12.938)
G1 X0.817 Y5.329 Z1.140 F4800.000 A92.759 (d: 12.9444)
G1 X0.817 Y-7.609 Z1.140 F4800.000 A93.261 (d: 0.4085)
G1 X1.634 Y-7.609 Z1.140 F4800.000 A93.293 (d: 0.4085)
G1 X1.634 Y5.329 Z1.140 F4800.000 A93.795 (d: 12.9444)
G1 X2.042 Y5.329 Z1.140 F4800.000 A93.811 (d: 12.9638)
G1 X2.042 Y-7.609 Z1.140 F4800.000 A94.313 (d: 0.817)
G1 X2.451 Y-7.609 Z1.140 F4800.000 A94.329 (d: 1.2255)
G1 X2.451 Y5.329 Z1.140 F4800.000 A94.831 (d: 12.9959)
G1 X2.859 Y5.329 Z1.140 F4800.000 A94.847 (d: 13.0408)
G1 X2.859 Y-7.609 Z1.140 F4800.000 A95.349 (d: 1.634)
G1 X3.268 Y-7.609 Z1.140 F4800.000 A95.365 (d: 2.0425)
G1 X3.268 Y5.329 Z1.140 F4800.000 A95.868 (d: 13.0982)
G1 X3.676 Y5.329 Z1.140 F4800.000 A95.883 (d: 13.1681)
G1 X3.676 Y-7.609 Z1.140 F4800.000 A96.386 (d: 2.451)
G1 X4.085 Y-7.609 Z1.140 F4800.000 A96.402 (d: 2.8595)
G1 X4.085 Y5.329 Z1.140 F4800.000 A96.904 (d: 13.2502)
G1 X4.494 Y5.329 Z1.140 F4800.000 A96.920 (d: 13.3443)
G1 X4.494 Y-7.609 Z1.140 F4800.000 A97.422 (d: 3.268)
G1 X4.902 Y-7.609 Z1.140 F4800.000 A97.438 (d: 3.6765)
G1 X4.902 Y5.329 Z1.140 F4800.000 A97.940 (d: 13.4502)
G1 X5.310 Y5.329 Z1.140 F4800.000 A97.956 (d: 13.5676)
G1 X5.310 Y-7.609 Z1.140 F4800.000 A98.458 (d: 4.085)
G1 X5.719 Y-7.609 Z1.140 F4800.000 A98.474 (d: 4.4935)
G1 X5.719 Y5.329 Z1.140 F4800.000 A98.976 (d: 13.6961)
G1 X6.127 Y5.329 Z1.140 F4800.000 A98.992 (d: 13.8355)
G1 X6.127 Y-7.609 Z1.140 F4800.000 A99.494 (d: 4.902)
G1 X6.536 Y-7.609 Z1.140 F4800.000 A99.510 (d: 5.3105)
G1 X6.536 Y5.329 Z1.140 F4800.000 A100.013 (d: 13.9855)
G1 X6.944 Y5.329 Z1.140 F4800.000 A100.028 (d: 14.1456)
G1 X6.944 Y-7.609 Z1.140 F4800.000 A100.531 (d: 5.719)
G1 X7.353 Y-7.609 Z1.140 F4800.000 A100.547 (d: 6.1275)
G1 X7.353 Y5.329 Z1.140 F4800.000 A101.049 (d: 14.3157)
G1 X7.761 Y5.329 Z1.140 F4800.000 A101.065 (d: 14.4952)
G1 X7.761 Y-7.609 Z1.140 F4800.000 A101.567 (d: 6.536)
G1 X8.170 Y-7.609 Z1.140 F4800.000 A101.583 (d: 6.9445)
G1 X8.170 Y5.329 Z1.140 F4800.000 A102.085 (d: 14.6839)
G1 X8.579 Y5.329 Z1.140 F4800.000 A102.101 (d: 14.8815)
G1 X8.579 Y-7.609 Z1.140 F4800.000 A102.603 (d: 7.353)
G1 X8.987 Y-7.609 Z1.140 F4800.000 A102.619 (d: 7.7615)
G1 X8.987 Y5.329 Z1.140 F4800.000 A103.121 (d: 15.0875)
G1 X9.396 Y5.329 Z1.140 F4800.000 A103.137 (d: 15.3017)
G1 X9.396 Y-7.609 Z1.140 F4800.000 A103.639 (d: 8.17)
G1 X9.804 Y-7.609 Z1.140 F4800.000 A103.655 (d: 8.5785)
G1 X9.804 Y5.329 Z1.140 F4800.000 A104.158 (d: 15.5236)
G1 X10.212 Y5.329 Z1.140 F4800.000 A104.173 (d: 15.753)
G1 X10.212 Y-7.609 Z1.140 F4800.000 A104.676 (d: 8.987)
G1 X10.621 Y-7.609 Z1.140 F4800.000 A104.692 (d: 9.3955)
G1 X10.621 Y5.329 Z1.140 F4800.000 A105.194 (d: 15.9896)
G1 X11.029 Y5.329 Z1.140 F4800.000 A105.210 (d: 16.233)
G1 X11.029 Y-7.609 Z1.140 F4800.000 A105.712 (d: 9.804)
G1 X11.438 Y-7.609 Z1.140 F4800.000 A105.728 (d: 10.2125)
G1 X11.438 Y5.329 Z1.140 F4800.000 A106.230 (d: 16.4829)
G1 X11.846 Y5.329 Z1.140 F4800.000 A106.246 (d: 16.7391)
G1 X11.846 Y-7.609 Z1.140 F4800.000 A106.748 (d: 10.621)
G1 X12.255 Y-7.609 Z1.140 F4800.000 A106.764 (d: 11.0295)
G1 X12.255 Y5.329 Z1.140 F4800.000 A107.266 (d: 17.0012)
G1 X12.663 Y5.329 Z1.140 F4800.000 A107.282 (d: 17.269)
G1 X12.663 Y-7.609 Z1.140 F4800.000 A107.784 (d: 11.438)
G1 X13.072 Y-7.609 Z1.140 F4800.000 A107.800 (d: 11.8465)
G1 X13.072 Y5.329 Z1.140 F4800.000 A108.303 (d: 17.5423)
G1 X13.480 Y5.329 Z1.140 F4800.000 A108.318 (d: 17.8207)
G1 X13.480 Y-7.609 Z1.140 F4800.000 A108.821 (d: 12.255)
G1 X13.889 Y-7.609 Z1.140 F4800.000 A108.837 (d: 12.6635)
G1 X13.889 Y5.329 Z1.140 F4800.000 A109.339 (d: 18.104)
G1 X14.297 Y5.329 Z1.140 F4800.000 A109.355 (d: 18.3921)
G1 X14.297 Y-7.609 Z1.140 F4800.000 A109.857 (d: 13.072)
G1 X14.706 Y-7.609 Z1.140 F4800.000 A109.873 (d: 13.4805)
G1 X14.706 Y5.329 Z1.140 F4800.000 A110.375 (d: 18.6846)
G1 X15.114 Y5.329 Z1.140 F4800.000 A110.391 (d: 18.9815)
G1 X15.114 Y-7.609 Z1.140 F4800.000 A110.893 (d: 13.889)
G1 X15.523 Y-7.609 Z1.140 F4800.000 A110.909 (d: 14.2975)
G1 X15.523 Y5.329 Z1.140 F4800.000 A111.411 (d: 19.2824)
G1 X15.931 Y5.329 Z1.140 F4800.000 A111.427 (d: 19.5872)
G1 X15.931 Y-7.609 Z1.140 F4800.000 A111.929 (d: 14.706)
G1 X16.340 Y-7.609 Z1.140 F4800.000 A111.945 (d: 15.1145)
G1 X16.340 Y5.329 Z1.140 F4800.000 A112.448 (d: 19.8957)
G1 X16.748 Y5.329 Z1.140 F4800.000 A112.463 (d: 20.2078)
G1 X16.748 Y-7.609 Z1.140 F4800.000 A112.966 (d: 15.523)
G1 X17.157 Y-7.609 Z1.140 F4800.000 A112.982 (d: 15.9315)
G1 X17.157 Y5.329 Z1.140 F4800.000 A113.484 (d: 20.5233)
G1 X17.566 Y5.329 Z1.140 F4800.000 A113.500 (d: 20.842)
G1 X17.566 Y-7.609 Z1.140 F4800.000 A114.002 (d: 16.34)
G1 X17.974 Y-7.609 Z1.140 F4800.000 A114.018 (d: 16.7485)
G1 X17.974 Y5.329 Z1.140 F4800.000 A114.520 (d: 21.1637)
G1 X18.383 Y5.329 Z1.140 F4800.000 A114.536 (d: 21.4885)
G1 X18.383 Y-7.609 Z1.140 F4800.000 A115.038 (d: 17.157)
G1 X18.791 Y-7.609 Z1.140 F4800.000 A115.054 (d: 17.5655)
G1 X18.791 Y5.329 Z1.140 F4800.000 A115.556 (d: 21.816)
G1 X19.200 Y5.329 Z1.140 F4800.000 A115.572 (d: 22.1463)
G1 X19.200 Y-7.609 Z1.140 F4800.000 A116.075 (d: 17.974)
G1 F798.000 A115.575 (snort)

(Slice 4, 1 Extruder)
G1 Z1.410 F500.000 (move Z)
(   Extruder 0)
( extruder 0 )
( GSWITCH T0 )
( TODO: add offset management to Gantry )

(inset 0/2 )
(  path 0/1, 5 points,  )
G1 X0.215 Y-8.266 Z1.410 F6000.000 (move into position)
G1 F798.000 A116.075 (squirt)
G1 X0.215 Y5.446 Z1.410 F4800.000 A116.607 (d: 13.712)
G1 X19.785 Y5.446 Z1.410 F4800.000 A117.367 (d: 23.8957)
G1 X19.785 Y-8.266 Z1.410 F4800.000 A117.899 (d: 19.57)
G1 X0.215 Y-8.266 Z1.410 F4800.000 A118.659 (d: 0)
G1 F798.000 A118.159 (snort)

(inset 1/2 )
(  path 0/1, 5 points,  )
G1 X0.602 Y-7.879 Z1.410 F6000.000 (move into position)
G1 F798.000 A118.659 (squirt)
G1 X0.602 Y5.059 Z1.410 F4800.000 A119.161 (d: 12.938)
G1 X19.398 Y5.059 Z1.410 F4800.000 A119.891 (d: 22.8184)
G1 X19.398 Y-7.879 Z1.410 F4800.000 A120.393 (d: 18.796)
G1 X0.602 Y-7.879 Z1.410 F4800.000 A121.123 (d: 0)
G1 F798.000 A120.623 (snort)

(infills: 1)
(  path 0/1, 62 points,  )
G1 X0.602 Y-7.169 Z1.410 F6000.000 (move into position)
G1 F798.000 A121.123 (squirt)
G1 X19.398 Y-7.169 Z1.410 F4800.000 A121.852 (d: 18.796)
G1 X19.398 Y-7.577 Z1.410 F4800.000 A121.868 (d: 18.8004)
G1 X0.602 Y-7.577 Z1.410 F4800.000 A122.598 (d: 0.4085)
G1 X0.602 Y-6.760 Z1.410 F4800.000 A122.629 (d: 0.4085)
G1 X19.398 Y-6.760 Z1.410 F4800.000 A123.359 (d: 18.8004)
G1 X19.398 Y-6.352 Z1.410 F4800.000 A123.375 (d: 18.8137)
G1 X0.602 Y-6.352 Z1.410 F4800.000 A124.105 (d: 0.817)
G1 X0.602 Y-5.943 Z1.410 F4800.000 A124.121 (d: 1.2255)
G1 X19.398 Y-5.943 Z1.410 F4800.000 A124.850 (d: 18.8359)
G1 X19.398 Y-5.535 Z1.410 F4800.000 A124.866 (d: 18.8669)
G1 X0.602 Y-5.535 Z1.410 F4800.000 A125.596 (d: 1.634)
G1 X0.602 Y-5.126 Z1.410 F4800.000 A125.612 (d: 2.0425)
G1 X19.398 Y-5.126 Z1.410 F4800.000 A126.341 (d: 18.9067)
G1 X19.398 Y-4.718 Z1.410 F4800.000 A126.357 (d: 18.9551)
G1 X0.602 Y-4.718 Z1.410 F4800.000 A127.087 (d: 2.451)
G1 X0.602 Y-4.309 Z1.410 F4800.000 A127.103 (d: 2.8595)
G1 X19.398 Y-4.309 Z1.410 F4800.000 A127.832 (d: 19.0123)
G1 X19.398 Y-3.901 Z1.410 F4800.000 A127.848 (d: 19.078)
G1 X0.602 Y-3.901 Z1.410 F4800.000 A128.578 (d: 3.268)
G1 X0.602 Y-3.492 Z1.410 F4800.000 A128.594 (d: 3.6765)
G1 X19.398 Y-3.492 Z1.410 F4800.000 A129.323 (d: 19.1522)
G1 X19.398 Y-3.084 Z1.410 F4800.000 A129.339 (d: 19.2348)
G1 X0.602 Y-3.084 Z1.410 F4800.000 A130.069 (d: 4.085)
G1 X0.602 Y-2.675 Z1.410 F4800.000 A130.085 (d: 4.4935)
G1 X19.398 Y-2.675 Z1.410 F4800.000 A130.815 (d: 19.3257)
G1 X19.398 Y-2.267 Z1.410 F4800.000 A130.830 (d: 19.4247)
G1 X0.602 Y-2.267 Z1.410 F4800.000 A131.560 (d: 4.902)
G1 X0.602 Y-1.858 Z1.410 F4800.000 A131.576 (d: 5.3105)
G1 X19.398 Y-1.858 Z1.410 F4800.000 A132.306 (d: 19.5318)
G1 X19.398 Y-1.450 Z1.410 F4800.000 A132.322 (d: 19.6468)
G1 X0.602 Y-1.450 Z1.410 F4800.000 A133.051 (d: 5.719)
G1 X0.602 Y-1.041 Z1.410 F4800.000 A133.067 (d: 6.1275)
G1 X19.398 Y-1.041 Z1.410 F4800.000 A133.797 (d: 19.7696)
G1 X19.398 Y-0.633 Z1.410 F4800.000 A133.813 (d: 19.9)
G1 X0.602 Y-0.633 Z1.410 F4800.000 A134.542 (d: 6.536)
G1 X0.602 Y-0.224 Z1.410 F4800.000 A134.558 (d: 6.9445)
G1 X19.398 Y-0.224 Z1.410 F4800.000 A135.288 (d: 20.0379)
G1 X19.398 Y0.184 Z1.410 F4800.000 A135.304 (d: 20.1831)
G1 X0.602 Y0.184 Z1.410 F4800.000 A136.033 (d: 7.353)
G1 X0.602 Y0.593 Z1.410 F4800.000 A136.049 (d: 7.7615)
G1 X19.398 Y0.593 Z1.410 F4800.000 A136.779 (d: 20.3354)
G1 X19.398 Y1.001 Z1.410 F4800.000 A136.795 (d: 20.4948)
G1 X0.602 Y1.001 Z1.410 F4800.000 A137.524 (d: 8.17)
G1 X0.602 Y1.410 Z1.410 F4800.000 A137.540 (d: 8.5785)
G1 X19.398 Y1.410 Z1.410 F4800.000 A138.270 (d: 20.6611)
G1 X19.398 Y1.818 Z1.410 F4800.000 A138.286 (d: 20.834)
G1 X0.602 Y1.818 Z1.410 F4800.000 A139.016 (d: 8.987)
G1 X0.602 Y2.227 Z1.410 F4800.000 A139.031 (d: 9.3955)
G1 X19.398 Y2.227 Z1.410 F4800.000 A139.761 (d: 21.0134)
G1 X19.398 Y2.635 Z1.410 F4800.000 A139.777 (d: 21.1992)
G1 X0.602 Y2.635 Z1.410 F4800.000 A140.507 (d: 9.804)
G1 X0.602 Y3.044 Z1.410 F4800.000 A140.522 (d: 10.2125)
G1 X19.398 Y3.044 Z1.410 F4800.000 A141.252 (d: 21.3912)
G1 X19.398 Y3.452 Z1.410 F4800.000 A141.268 (d: 21.5892)
G1 X0.602 Y3.452 Z1.410 F4800.000 A141.998 (d: 10.621)
G1 X0.602 Y3.861 Z1.410 F4800.000 A142.014 (d: 11.0295)
G1 X19.398 Y3.861 Z1.410 F4800.000 A142.743 (d: 21.7931)
G1 X19.398 Y4.269 Z1.410 F4800.000 A142.759 (d: 22.0027)
G1 X0.602 Y4.269 Z1.410 F4800.000 A143.489 (d: 11.438)
G1 X0.602 Y4.678 Z1.410 F4800.000 A143.505 (d: 11.8465)
G1 X19.398 Y4.678 Z1.410 F4800.000 A144.234 (d: 22.2178)
G1 F798.000 A143.734 (snort)

(Slice 5, 1 Extruder)
G1 Z1.680 F500.000 (move Z)
(   Extruder 0)
( extruder 0 )
( GSWITCH T0 )
( TODO: add offset management to Gantry )

(inset 0/2 )
(  path 0/1, 5 points,  )
G1 X0.215 Y-8.536 Z1.680 F6000.000 (move into position)
G1 F798.000 A144.234 (squirt)
G1 X0.215 Y5.176 Z1.680 F4800.000 A144.767 (d: 13.712)
G1 X19.785 Y5.176 Z1.680 F4800.000 A145.526 (d: 23.8957)
G1 X19.785 Y-8.536 Z1.680 F4800.000 A146.059 (d: 19.57)
G1 X0.215 Y-8.536 Z1.680 F4800.000 A146.818 (d: 0)
G1 F798.000 A146.318 (snort)

(inset 1/2 )
(  path 0/1, 5 points,  )
G1 X0.602 Y-8.149 Z1.680 F6000.000 (move into position)
G1 F798.000 A146.818 (squirt)
G1 X0.602 Y4.789 Z1.680 F4800.000 A147.321 (d: 12.938)
G1 X19.398 Y4.789 Z1.680 F4800.000 A148.050 (d: 22.8184)
G1 X19.398 Y-8.149 Z1.680 F4800.000 A148.553 (d: 18.796)
G1 X0.602 Y-8.149 Z1.680 F4800.000 A149.282 (d: 0)
G1 F798.000 A148.782 (snort)

(infills: 1)
(  path 0/1, 92 points,  )
G1 X1.225 Y-8.149 Z1.680 F6000.000 (move into position)
G1 F798.000 A149.282 (squirt)
G1 X1.225 Y4.789 Z1.680 F4800.000 A149.785 (d: 12.938)
G1 X0.817 Y4.789 Z1.680 F4800.000 A149.800 (d: 12.9444)
G1 X0.817 Y-8.149 Z1.680 F4800.000 A150.303 (d: 0.4085)
G1 X1.634 Y-8.149 Z1.680 F4800.000 A150.334 (d: 0.4085)
G1 X1.634 Y4.789 Z1.680 F4800.000 A150.837 (d: 12.9444)
G1 X2.042 Y4.789 Z1.680 F4800.000 A150.853 (d: 12.9638)
G1 X2.042 Y-8.149 Z1.680 F4800.000 A151.355 (d: 0.817)
G1 X2.451 Y-8.149 Z1.680 F4800.000 A151.371 (d: 1.2255)
G1 X2.451 Y4.789 Z1.680 F4800.000 A151.873 (d: 12.9959)
G1 X2.859 Y4.789 Z1.680 F4800.000 A151.889 (d: 13.0408)
G1 X2.859 Y-8.149 Z1.680 F4800.000 A152.391 (d: 1.634)
G1 X3.268 Y-8.149 Z1.680 F4800.000 A152.407 (d: 2.0425)
G1 X3.268 Y4.789 Z1.680 F4800.000 A152.909 (d: 13.0982)
G1 X3.676 Y4.789 Z1.680 F4800.000 A152.925 (d: 13.1681)
G1 X3.676 Y-8.149 Z1.680 F4800.000 A153.427 (d: 2.451)
G1 X4.085 Y-8.149 Z1.680 F4800.000 A153.443 (d: 2.8595)
G1 X4.085 Y4.789 Z1.680 F4800.000 A153.945 (d: 13.2502)
G1 X4.494 Y4.789 Z1.680 F4800.000 A153.961 (d: 13.3443)
G1 X4.494 Y-8.149 Z1.680 F4800.000 A154.464 (d: 3.268)
G1 X4.902 Y-8.149 Z1.680 F4800.000 A154.479 (d: 3.6765)
G1 X4.902 Y4.789 Z1.680 F4800.000 A154.982 (d: 13.4502)
G1 X5.310 Y4.789 Z1.680 F4800.000 A154.998 (d: 13.5676)
G1 X5.310 Y-8.149 Z1.680 F4800.000 A155.500 (d: 4.085)
G1 X5.719 Y-8.149 Z1.680 F4800.000 A155.516 (d: 4.4935)
G1 X5.719 Y4.789 Z1.680 F4800.000 A156.018 (d: 13.6961)
G1 X6.127 Y4.789 Z1.680 F4800.000 A156.034 (d: 13.8355)
G1 X6.127 Y-8.149 Z1.680 F4800.000 A156.536 (d: 4.902)
G1 X6.536 Y-8.149 Z1.680 F4800.000 A156.552 (d: 5.3105)
G1 X6.536 Y4.789 Z1.680 F4800.000 A157.054 (d: 13.9855)
G1 X6.944 Y4.789 Z1.680 F4800.000 A157.070 (d: 14.1456)
G1 X6.944 Y-8.149 Z1.680 F4800.000 A157.572 (d: 5.719)
G1 X7.353 Y-8.149 Z1.680 F4800.000 A157.588 (d: 6.1275)
G1 X7.353 Y4.789 Z1.680 F4800.000 A158.091 (d: 14.3157)
G1 X7.761 Y4.789 Z1.680 F4800.000 A158.106 (d: 14.4952)
G1 X7.761 Y-8.149 Z1.680 F4800.000 A158.609 (d: 6.536)
G1 X8.170 Y-8.149 Z1.680 F4800.000 A158.624 (d: 6.9445)
G1 X8.170 Y4.789 Z1.680 F4800.000 A159.127 (d: 14.6839)
G1 X8.579 Y4.789 Z1.680 F4800.000 A159.143 (d: 14.8815)
G1 X8.579 Y-8.149 Z1.680 F4800.000 A159.645 (d: 7.353)
G1 X8.987 Y-8.149 Z1.680 F4800.000 A159.661 (d: 7.7615)
G1 X8.987 Y4.789 Z1.680 F4800.000 A160.163 (d: 15.0875)
G1 X9.396 Y4.789 Z1.680 F4800.000 A160.179 (d: 15.3017)
G1 X9.396 Y-8.149 Z1.680 F4800.000 A160.681 (d: 8.17)
G1 X9.804 Y-8.149 Z1.680 F4800.000 A160.697 (d: 8.5785)
G1 X9.804 Y4.789 Z1.680 F4800.000 A161.199 (d: 15.5236)
G1 X10.212 Y4.789 Z1.680 F4800.000 A161.215 (d: 15.753)
G1 X10.212 Y-8.149 Z1.680 F4800.000 A161.717 (d: 8.987)
G1 X10.621 Y-8.149 Z1.680 F4800.000 A161.733 (d: 9.3955)
G1 X10.621 Y4.789 Z1.680 F4800.000 A162.236 (d: 15.9896)
G1 X11.029 Y4.789 Z1.680 F4800.000 A162.251 (d: 16.233)
G1 X11.029 Y-8.149 Z1.680 F4800.000 A162.754 (d: 9.804)
G1 X11.438 Y-8.149 Z1.680 F4800.000 A162.770 (d: 10.2125)
G1 X11.438 Y4.789 Z1.680 F4800.000 A163.272 (d: 16.4829)
G1 X11.846 Y4.789 Z1.680 F4800.000 A163.288 (d: 16.7391)
G1 X11.846 Y-8.149 Z1.680 F4800.000 A163.790 (d: 10.621)
G1 X12.255 Y-8.149 Z1.680 F4800.000 A163.806 (d: 11.0295)
G1 X12.255 Y4.789 Z1.680 F4800.000 A164.308 (d: 17.0012)
G1 X12.663 Y4.789 Z1.680 F4800.000 A164.324 (d: 17.269)
G1 X12.663 Y-8.149 Z1.680 F4800.000 A164.826 (d: 11.438)
G1 X13.072 Y-8.149 Z1.680 F4800.000 A164.842 (d: 11.8465)
G1 X13.072 Y4.789 Z1.680 F4800.000 A165.344 (d: 17.5423)
G1 X13.480 Y4.789 Z1.680 F4800.000 A165.360 (d: 17.8207)
G1 X13.480 Y-8.149 Z1.680 F4800.000 A165.862 (d: 12.255)
G1 X13.889 Y-8.149 Z1.680 F4800.000 A165.878 (d: 12.6635)
G1 X13.889 Y4.789 Z1.680 F4800.000 A166.381 (d: 18.104)
G1 X14.297 Y4.789 Z1.680 F4800.000 A166.396 (d: 18.3921)
G1 X14.297 Y-8.149 Z1.680 F4800.000 A166.899 (d: 13.072)
G1 X14.706 Y-8.149 Z1.680 F4800.000 A166.915 (d: 13.4805)
G1 X14.706 Y4.789 Z1.680 F4800.000 A167.417 (d: 18.6846)
G1 X15.114 Y4.789 Z1.680 F4800.000 A167.433 (d: 18.9815)
G1 X15.114 Y-8.149 Z1.680 F4800.000 A167.935 (d: 13.889)
G1 X15.523 Y-8.149 Z1.680 F4800.000 A167.951 (d: 14.2975)
G1 X15.523 Y4.789 Z1.680 F4800.000 A168.453 (d: 19.2824)
G1 X15.931 Y4.789 Z1.680 F4800.000 A168.469 (d: 19.5872)
G1 X15.931 Y-8.149 Z1.680 F4800.000 A168.971 (d: 14.706)
G1 X16.340 Y-8.149 Z1.680 F4800.000 A168.987 (d: 15.1145)
G1 X16.340 Y4.789 Z1.680 F4800.000 A169.489 (d: 19.8957)
G1 X16.748 Y4.789 Z1.680 F4800.000 A169.505 (d: 20.2078)
G1 X16.748 Y-8.149 Z1.680 F4800.000 A170.007 (d: 15.523)
G1 X17.157 Y-8.149 Z1.680 F4800.000 A170.023 (d: 15.9315)
G1 X17.157 Y4.789 Z1.680 F4800.000 A170.526 (d: 20.5233)
G1 X17.566 Y4.789 Z1.680 F4800.000 A170.541 (d: 20.842)
G1 X17.566 Y-8.149 Z1.680 F4800.000 A171.044 (d: 16.34)
G1 X17.974 Y-8.149 Z1.680 F4800.000 A171.060 (d: 16.7485)
G1 X17.974 Y4.789 Z1.680 F4800.000 A171.562 (d: 21.1637)
G1 X18.383 Y4.789 Z1.680 F4800.000 A171.578 (d: 21.4885)
G1 X18.383 Y-8.149 Z1.680 F4800.000 A172.080 (d: 17.157)
G1 X18.791 Y-8.149 Z1.680 F4800.000 A172.096 (d: 17.5655)
G1 X18.791 Y4.789 Z1.680 F4800.000 A172.598 (d: 21.816)
G1 X19.200 Y4.789 Z1.680 F4800.000 A172.614 (d: 22.1463)
G1 X19.200 Y-8.149 Z1.680 F4800.000 A173.116 (d: 17.974)
G1 F798.000 A172.616 (snort)

(Slice 6, 1 Extruder)
G1 Z1.950 F500.000 (move Z)
(   Extruder 0)
( extruder 0 )
( GSWITCH T0 )
( TODO: add offset management to Gantry )

(inset 0/2 )
(  path 0/1, 5 points,  )
G1 X0.215 Y-8.806 Z1.950 F6000.000 (move into position)
G1 F798.000 A173.116 (squirt)
G1 X0.215 Y4.906 Z1.950 F4800.000 A173.649 (d: 13.712)
G1 X19.785 Y4.906 Z1.950 F4800.000 A174.408 (d: 23.8957)
G1 X19.785 Y-8.806 Z1.950 F4800.000 A174.941 (d: 19.57)
G1 X0.215 Y-8.806 Z1.950 F4800.000 A175.700 (d: 0)
G1 F798.000 A175.200 (snort)

(inset 1/2 )
(  path 0/1, 5 points,  )
G1 X0.602 Y-8.419 Z1.950 F6000.000 (move into position)
G1 F798.000 A175.700 (squirt)
G1 X0.602 Y4.519 Z1.950 F4800.000 A176.203 (d: 12.938)
G1 X19.398 Y4.519 Z1.950 F4800.000 A176.932 (d: 22.8184)
G1 X19.398 Y-8.419 Z1.950 F4800.000 A177.435 (d: 18.796)
G1 X0.602 Y-8.419 Z1.950 F4800.000 A178.164 (d: 0)
G1 F798.000 A177.664 (snort)

(infills: 1)
(  path 0/1, 22 points,  )
G1 X0.602 Y-7.986 Z1.950 F6000.000 (move into position)
G1 F798.000 A178.164 (squirt)
G1 X19.398 Y-7.986 Z1.950 F4800.000 A178.894 (d: 18.796)
G1 X19.398 Y-8.394 Z1.950 F4800.000 A178.910 (d: 18.8004)
G1 X0.602 Y-8.394 Z1.950 F4800.000 A179.639 (d: 0.4085)
G1 X0.602 Y-7.577 Z1.950 F4800.000 A179.671 (d: 0.4085)
G1 X19.398 Y-7.577 Z1.950 F4800.000 A180.401 (d: 18.8004)
G1 X19.398 Y-7.169 Z1.950 F4800.000 A180.417 (d: 18.8137)
G1 X0.602 Y-7.169 Z1.950 F4800.000 A181.146 (d: 0.817)
G1 X0.602 Y-6.760 Z1.950 F4800.000 A181.162 (d: 1.2255)
G1 X19.398 Y-6.760 Z1.950 F4800.000 A181.892 (d: 18.8359)
G1 X19.398 Y-2.675 Z1.950 F4800.000 A182.051 (d: 19.5318)
G1 X0.602 Y-2.675 Z1.950 F4800.000 A182.780 (d: 5.3105)
G1 X0.602 Y1.410 Z1.950 F4800.000 A182.939 (d: 9.3955)
G1 X19.398 Y1.410 Z1.950 F4800.000 A183.668 (d: 21.0134)
G1 X19.398 Y3.044 Z1.950 F4800.000 A183.732 (d: 21.7931)
G1 X0.602 Y3.044 Z1.950 F4800.000 A184.462 (d: 11.0295)
G1 X0.602 Y3.452 Z1.950 F4800.000 A184.477 (d: 11.438)
G1 X19.398 Y3.452 Z1.950 F4800.000 A185.207 (d: 22.0027)
G1 X19.398 Y3.861 Z1.950 F4800.000 A185.223 (d: 22.2178)
G1 X0.602 Y3.861 Z1.950 F4800.000 A185.953 (d: 11.8465)
G1 X0.602 Y4.269 Z1.950 F4800.000 A185.969 (d: 12.255)
G1 X19.398 Y4.269 Z1.950 F4800.000 A186.698 (d: 22.4382)
G1 F798.000 A186.198 (snort)

(Slice 7, 1 Extruder)
G1 Z2.220 F500.000 (move Z)
(   Extruder 0)
( extruder 0 )
( GSWITCH T0 )
( TODO: add offset management to Gantry )

(inset 0/2 )
(  path 0/1, 5 points,  )
G1 X0.215 Y-9.076 Z2.220 F6000.000 (move into position)
G1 F798.000 A186.698 (squirt)
G1 X0.215 Y4.636 Z2.220 F4800.000 A187.231 (d: 13.712)
G1 X19.785 Y4.636 Z2.220 F4800.000 A187.990 (d: 23.8957)
G1 X19.785 Y-9.076 Z2.220 F4800.000 A188.523 (d: 19.57)
G1 X0.215 Y-9.076 Z2.220 F4800.000 A189.282 (d: 0)
G1 F798.000 A188.782 (snort)

(inset 1/2 )
(  path 0/1, 5 points,  )
G1 X0.602 Y-8.689 Z2.220 F6000.000 (move into position)
G1 F798.000 A189.282 (squirt)
G1 X0.602 Y4.249 Z2.220 F4800.000 A189.785 (d: 12.938)
G1 X19.398 Y4.249 Z2.220 F4800.000 A190.514 (d: 22.8184)
G1 X19.398 Y-8.689 Z2.220 F4800.000 A191.017 (d: 18.796)
G1 X0.602 Y-8.689 Z2.220 F4800.000 A191.746 (d: 0)
G1 F798.000 A191.246 (snort)

(infills: 1)
(  path 0/1, 92 points,  )
G1 X1.225 Y-8.689 Z2.220 F6000.000 (move into position)
G1 F798.000 A191.746 (squirt)
G1 X1.225 Y-7.069 Z2.220 F4800.000 A191.809 (d: 1.62)
G1 X0.817 Y-7.069 Z2.220 F4800.000 A191.825 (d: 1.67071)
G1 X0.817 Y-8.689 Z2.220 F4800.000 A191.888 (d: 0.4085)
G1 X1.634 Y-8.689 Z2.220 F4800.000 A191.920 (d: 0.4085)
G1 X1.634 Y-7.069 Z2.220 F4800.000 A191.982 (d: 1.67071)
G1 X2.042 Y-7.069 Z2.220 F4800.000 A191.998 (d: 1.81436)
G1 X2.042 Y-8.689 Z2.220 F4800.000 A192.061 (d: 0.817)
G1 X2.451 Y-8.689 Z2.220 F4800.000 A192.077 (d: 1.2255)
G1 X2.451 Y-7.069 Z2.220 F4800.000 A192.140 (d: 2.03132)
G1 X2.859 Y-7.069 Z2.220 F4800.000 A192.156 (d: 2.30095)
G1 X2.859 Y-8.689 Z2.220 F4800.000 A192.219 (d: 1.634)
G1 X3.268 Y-8.689 Z2.220 F4800.000 A192.235 (d: 2.0425)
G1 X3.268 Y-7.069 Z2.220 F4800.000 A192.297 (d: 2.60695)
G1 X3.676 Y-7.069 Z2.220 F4800.000 A192.313 (d: 2.93799)
G1 X3.676 Y-8.689 Z2.220 F4800.000 A192.376 (d: 2.451)
G1 X4.085 Y-8.689 Z2.220 F4800.000 A192.392 (d: 2.8595)
G1 X4.085 Y4.249 Z2.220 F4800.000 A192.894 (d: 13.2502)
G1 X8.170 Y4.249 Z2.220 F4800.000 A193.053 (d: 14.6839)
G1 X8.170 Y-8.689 Z2.220 F4800.000 A193.555 (d: 6.9445)
G1 X7.761 Y-8.689 Z2.220 F4800.000 A193.571 (d: 6.536)
G1 X7.761 Y-7.069 Z2.220 F4800.000 A193.634 (d: 6.73377)
G1 X7.353 Y-7.069 Z2.220 F4800.000 A193.650 (d: 6.33803)
G1 X7.353 Y-8.689 Z2.220 F4800.000 A193.713 (d: 6.1275)
G1 X6.944 Y-8.689 Z2.220 F4800.000 A193.729 (d: 5.719)
G1 X6.944 Y-7.069 Z2.220 F4800.000 A193.791 (d: 5.94402)
G1 X6.536 Y-7.069 Z2.220 F4800.000 A193.807 (d: 5.5521)
G1 X6.536 Y-8.689 Z2.220 F4800.000 A193.870 (d: 5.3105)
G1 X6.127 Y-8.689 Z2.220 F4800.000 A193.886 (d: 4.902)
G1 X6.127 Y-7.069 Z2.220 F4800.000 A193.949 (d: 5.16275)
G1 X5.719 Y-7.069 Z2.220 F4800.000 A193.965 (d: 4.7766)
G1 X5.719 Y-8.689 Z2.220 F4800.000 A194.028 (d: 4.4935)
G1 X5.310 Y-8.689 Z2.220 F4800.000 A194.044 (d: 4.085)
G1 X5.310 Y-7.069 Z2.220 F4800.000 A194.106 (d: 4.3945)
G1 X4.902 Y-7.069 Z2.220 F4800.000 A194.122 (d: 4.01759)
G1 X4.902 Y-8.689 Z2.220 F4800.000 A194.185 (d: 3.6765)
G1 X4.494 Y-8.689 Z2.220 F4800.000 A194.201 (d: 3.268)
G1 X4.494 Y-7.069 Z2.220 F4800.000 A194.264 (d: 3.6475)
G1 X8.579 Y-7.069 Z2.220 F4800.000 A194.423 (d: 7.52934)
G1 X8.579 Y-8.689 Z2.220 F4800.000 A194.485 (d: 7.353)
G1 X8.987 Y-8.689 Z2.220 F4800.000 A194.501 (d: 7.7615)
G1 X8.987 Y-7.069 Z2.220 F4800.000 A194.564 (d: 7.92876)
G1 X9.396 Y-7.069 Z2.220 F4800.000 A194.580 (d: 8.32906)
G1 X9.396 Y-8.689 Z2.220 F4800.000 A194.643 (d: 8.17)
G1 X9.804 Y-8.689 Z2.220 F4800.000 A194.659 (d: 8.5785)
G1 X9.804 Y-7.069 Z2.220 F4800.000 A194.722 (d: 8.73012)
G1 X10.212 Y-7.069 Z2.220 F4800.000 A194.738 (d: 9.13184)
G1 X10.212 Y-8.689 Z2.220 F4800.000 A194.800 (d: 8.987)
G1 X10.621 Y-8.689 Z2.220 F4800.000 A194.816 (d: 9.3955)
G1 X10.621 Y-7.069 Z2.220 F4800.000 A194.879 (d: 9.53414)
G1 X11.029 Y-7.069 Z2.220 F4800.000 A194.895 (d: 9.93694)
G1 X11.029 Y-8.689 Z2.220 F4800.000 A194.958 (d: 9.804)
G1 X11.438 Y-8.689 Z2.220 F4800.000 A194.974 (d: 10.2125)
G1 X11.438 Y-7.069 Z2.220 F4800.000 A195.037 (d: 10.3402)
G1 X11.846 Y-7.069 Z2.220 F4800.000 A195.053 (d: 10.7438)
G1 X11.846 Y-8.689 Z2.220 F4800.000 A195.115 (d: 10.621)
G1 X12.255 Y-8.689 Z2.220 F4800.000 A195.131 (d: 11.0295)
G1 X12.255 Y4.249 Z2.220 F4800.000 A195.634 (d: 17.0012)
G1 X16.340 Y4.249 Z2.220 F4800.000 A195.792 (d: 19.8957)
G1 X16.340 Y-8.689 Z2.220 F4800.000 A196.294 (d: 15.1145)
G1 X15.931 Y-8.689 Z2.220 F4800.000 A196.310 (d: 14.706)
G1 X15.931 Y-7.069 Z2.220 F4800.000 A196.373 (d: 14.795)
G1 X15.523 Y-7.069 Z2.220 F4800.000 A196.389 (d: 14.389)
G1 X15.523 Y-8.689 Z2.220 F4800.000 A196.452 (d: 14.2975)
G1 X15.114 Y-8.689 Z2.220 F4800.000 A196.468 (d: 13.889)
G1 X15.114 Y-7.069 Z2.220 F4800.000 A196.531 (d: 13.9832)
G1 X14.706 Y-7.069 Z2.220 F4800.000 A196.546 (d: 13.5775)
G1 X14.706 Y-8.689 Z2.220 F4800.000 A196.609 (d: 13.4805)
G1 X14.297 Y-8.689 Z2.220 F4800.000 A196.625 (d: 13.072)
G1 X14.297 Y-7.069 Z2.220 F4800.000 A196.688 (d: 13.172)
G1 X13.889 Y-7.069 Z2.220 F4800.000 A196.704 (d: 12.7667)
G1 X13.889 Y-8.689 Z2.220 F4800.000 A196.767 (d: 12.6635)
G1 X13.480 Y-8.689 Z2.220 F4800.000 A196.783 (d: 12.255)
G1 X13.480 Y-7.069 Z2.220 F4800.000 A196.846 (d: 12.3616)
G1 X13.072 Y-7.069 Z2.220 F4800.000 A196.861 (d: 11.9568)
G1 X13.072 Y-8.689 Z2.220 F4800.000 A196.924 (d: 11.8465)
G1 X12.663 Y-8.689 Z2.220 F4800.000 A196.940 (d: 11.438)
G1 X12.663 Y-7.069 Z2.220 F4800.000 A197.003 (d: 11.5522)
G1 X16.748 Y-7.069 Z2.220 F4800.000 A197.162 (d: 15.6073)
G1 X16.748 Y-8.689 Z2.220 F4800.000 A197.225 (d: 15.523)
G1 X17.157 Y-8.689 Z2.220 F4800.000 A197.240 (d: 15.9315)
G1 X17.157 Y-7.069 Z2.220 F4800.000 A197.303 (d: 16.0137)
G1 X17.566 Y-7.069 Z2.220 F4800.000 A197.319 (d: 16.4201)
G1 X17.566 Y-8.689 Z2.220 F4800.000 A197.382 (d: 16.34)
G1 X17.974 Y-8.689 Z2.220 F4800.000 A197.398 (d: 16.7485)
G1 X17.974 Y-7.069 Z2.220 F4800.000 A197.461 (d: 16.8267)
G1 X18.383 Y-7.069 Z2.220 F4800.000 A197.477 (d: 17.2333)
G1 X18.383 Y-8.689 Z2.220 F4800.000 A197.540 (d: 17.157)
G1 X18.791 Y-8.689 Z2.220 F4800.000 A197.555 (d: 17.5655)
G1 X18.791 Y-7.069 Z2.220 F4800.000 A197.618 (d: 17.64)
G1 X19.200 Y-7.069 Z2.220 F4800.000 A197.634 (d: 18.0469)
G1 X19.200 Y-8.689 Z2.220 F4800.000 A197.697 (d: 17.974)
G1 F798.000 A197.197 (snort)

(Slice 8, 1 Extruder)
G1 Z2.490 F500.000 (move Z)
(   Extruder 0)
( extruder 0 )
( GSWITCH T0 )
( TODO: add offset management to Gantry )

(inset 0/2 )
(  path 0/1, 5 points,  )
G1 X0.215 Y-9.346 Z2.490 F6000.000 (move into position)
G1 F798.000 A197.697 (squirt)
G1 X0.215 Y4.366 Z2.490 F4800.000 A198.229 (d: 13.712)
G1 X19.785 Y4.366 Z2.490 F4800.000 A198.989 (d: 23.8957)
G1 X19.785 Y-9.346 Z2.490 F4800.000 A199.521 (d: 19.57)
G1 X0.215 Y-9.346 Z2.490 F4800.000 A200.281 (d: 0)
G1 F798.000 A199.781 (snort)

(inset 1/2 )
(  path 0/1, 5 points,  )
G1 X0.602 Y-8.959 Z2.490 F6000.000 (move into position)
G1 F798.000 A200.281 (squirt)
G1 X0.602 Y3.979 Z2.490 F4800.000 A200.783 (d: 12.938)
G1 X19.398 Y3.979 Z2.490 F4800.000 A201.513 (d: 22.8184)
G1 X19.398 Y-8.959 Z2.490 F4800.000 A202.015 (d: 18.796)
G1 X0.602 Y-8.959 Z2.490 F4800.000 A202.745 (d: 0)
G1 F798.000 A202.245 (snort)

(infills: 1)
(  path 0/1, 22 points,  )
G1 X0.602 Y-8.394 Z2.490 F6000.000 (move into position)
G1 F798.000 A202.745 (squirt)
G1 X19.398 Y-8.394 Z2.490 F4800.000 A203.475 (d: 18.796)
G1 X19.398 Y-8.803 Z2.490 F4800.000 A203.491 (d: 18.8004)
G1 X0.602 Y-8.803 Z2.490 F4800.000 A204.220 (d: 0.4085)
G1 X0.602 Y-7.986 Z2.490 F4800.000 A204.252 (d: 0.4085)
G1 X19.398 Y-7.986 Z2.490 F4800.000 A204.982 (d: 18.8004)
G1 X19.398 Y-7.577 Z2.490 F4800.000 A204.998 (d: 18.8137)
G1 X0.602 Y-7.577 Z2.490 F4800.000 A205.727 (d: 0.817)
G1 X0.602 Y-6.760 Z2.490 F4800.000 A205.759 (d: 1.634)
G1 X19.398 Y-6.760 Z2.490 F4800.000 A206.489 (d: 18.8669)
G1 X19.398 Y-2.675 Z2.490 F4800.000 A206.647 (d: 19.6468)
G1 X0.602 Y-2.675 Z2.490 F4800.000 A207.377 (d: 5.719)
G1 X0.602 Y1.410 Z2.490 F4800.000 A207.536 (d: 9.804)
G1 X19.398 Y1.410 Z2.490 F4800.000 A208.265 (d: 21.1992)
G1 X19.398 Y2.635 Z2.490 F4800.000 A208.313 (d: 21.7931)
G1 X0.602 Y2.635 Z2.490 F4800.000 A209.042 (d: 11.0295)
G1 X0.602 Y3.044 Z2.490 F4800.000 A209.058 (d: 11.438)
G1 X19.398 Y3.044 Z2.490 F4800.000 A209.788 (d: 22.0027)
G1 X19.398 Y3.452 Z2.490 F4800.000 A209.804 (d: 22.2178)
G1 X0.602 Y3.452 Z2.490 F4800.000 A210.534 (d: 11.8465)
G1 X0.602 Y3.861 Z2.490 F4800.000 A210.549 (d: 12.255)
G1 X19.398 Y3.861 Z2.490 F4800.000 A211.279 (d: 22.4382)
G1 F798.000 A210.779 (snort)

(Slice 9, 1 Extruder)
G1 Z2.760 F500.000 (move Z)
(   Extruder 0)
( extruder 0 )
( GSWITCH T0 )
( TODO: add offset management to Gantry )

(inset 0/2 )
(  path 0/1, 5 points,  )
G1 X0.215 Y-9.616 Z2.760 F6000.000 (move into position)
G1 F798.000 A211.279 (squirt)
G1 X0.215 Y4.096 Z2.760 F4800.000 A211.811 (d: 13.712)
G1 X19.785 Y4.096 Z2.760 F4800.000 A212.571 (d: 23.8957)
G1 X19.785 Y-9.616 Z2.760 F4800.000 A213.103 (d: 19.57)
G1 X0.215 Y-9.616 Z2.760 F4800.000 A213.863 (d: 0)
G1 F798.000 A213.363 (snort)

(inset 1/2 )
(  path 0/1, 5 points,  )
G1 X0.602 Y-9.229 Z2.760 F6000.000 (move into position)
G1 F798.000 A213.863 (squirt)
G1 X0.602 Y3.709 Z2.760 F4800.000 A214.365 (d: 12.938)
G1 X19.398 Y3.709 Z2.760 F4800.000 A215.095 (d: 22.8184)
G1 X19.398 Y-9.229 Z2.760 F4800.000 A215.597 (d: 18.796)
G1 X0.602 Y-9.229 Z2.760 F4800.000 A216.327 (d: 0)
G1 F798.000 A215.827 (snort)

(infills: 1)
(  path 0/1, 92 points,  )
G1 X1.225 Y-9.229 Z2.760 F6000.000 (move into position)
G1 F798.000 A216.327 (squirt)
G1 X1.225 Y-7.609 Z2.760 F4800.000 A216.390 (d: 1.62)
G1 X0.817 Y-7.609 Z2.760 F4800.000 A216.406 (d: 1.67071)
G1 X0.817 Y-9.229 Z2.760 F4800.000 A216.469 (d: 0.4085)
G1 X1.634 Y-9.229 Z2.760 F4800.000 A216.500 (d: 0.4085)
G1 X1.634 Y-7.609 Z2.760 F4800.000 A216.563 (d: 1.67071)
G1 X2.042 Y-7.609 Z2.760 F4800.000 A216.579 (d: 1.81436)
G1 X2.042 Y-9.229 Z2.760 F4800.000 A216.642 (d: 0.817)
G1 X2.451 Y-9.229 Z2.760 F4800.000 A216.658 (d: 1.2255)
G1 X2.451 Y-7.609 Z2.760 F4800.000 A216.721 (d: 2.03132)
G1 X2.859 Y-7.609 Z2.760 F4800.000 A216.737 (d: 2.30095)
G1 X2.859 Y-9.229 Z2.760 F4800.000 A216.800 (d: 1.634)
G1 X3.268 Y-9.229 Z2.760 F4800.000 A216.815 (d: 2.0425)
G1 X3.268 Y-7.609 Z2.760 F4800.000 A216.878 (d: 2.60695)
G1 X3.676 Y-7.609 Z2.760 F4800.000 A216.894 (d: 2.93799)
G1 X3.676 Y-9.229 Z2.760 F4800.000 A216.957 (d: 2.451)
G1 X4.085 Y-9.229 Z2.760 F4800.000 A216.973 (d: 2.8595)
G1 X4.085 Y3.709 Z2.760 F4800.000 A217.475 (d: 13.2502)
G1 X8.170 Y3.709 Z2.760 F4800.000 A217.634 (d: 14.6839)
G1 X8.170 Y-9.229 Z2.760 F4800.000 A218.136 (d: 6.9445)
G1 X7.761 Y-9.229 Z2.760 F4800.000 A218.152 (d: 6.536)
G1 X7.761 Y-7.609 Z2.760 F4800.000 A218.215 (d: 6.73377)
G1 X7.353 Y-7.609 Z2.760 F4800.000 A218.231 (d: 6.33803)
G1 X7.353 Y-9.229 Z2.760 F4800.000 A218.294 (d: 6.1275)
G1 X6.944 Y-9.229 Z2.760 F4800.000 A218.309 (d: 5.719)
G1 X6.944 Y-7.609 Z2.760 F4800.000 A218.372 (d: 5.94402)
G1 X6.536 Y-7.609 Z2.760 F4800.000 A218.388 (d: 5.5521)
G1 X6.536 Y-9.229 Z2.760 F4800.000 A218.451 (d: 5.3105)
G1 X6.127 Y-9.229 Z2.760 F4800.000 A218.467 (d: 4.902)
G1 X6.127 Y-7.609 Z2.760 F4800.000 A218.530 (d: 5.16275)
G1 X5.719 Y-7.609 Z2.760 F4800.000 A218.546 (d: 4.7766)
G1 X5.719 Y-9.229 Z2.760 F4800.000 A218.609 (d: 4.4935)
G1 X5.310 Y-9.229 Z2.760 F4800.000 A218.624 (d: 4.085)
G1 X5.310 Y-7.609 Z2.760 F4800.000 A218.687 (d: 4.3945)
G1 X4.902 Y-7.609 Z2.760 F4800.000 A218.703 (d: 4.01759)
G1 X4.902 Y-9.229 Z2.760 F4800.000 A218.766 (d: 3.6765)
G1 X4.494 Y-9.229 Z2.760 F4800.000 A218.782 (d: 3.268)
G1 X4.494 Y-7.609 Z2.760 F4800.000 A218.845 (d: 3.6475)
G1 X8.579 Y-7.609 Z2.760 F4800.000 A219.003 (d: 7.52934)
G1 X8.579 Y-9.229 Z2.760 F4800.000 A219.066 (d: 7.353)
G1 X8.987 Y-9.229 Z2.760 F4800.000 A219.082 (d: 7.7615)
G1 X8.987 Y-7.609 Z2.760 F4800.000 A219.145 (d: 7.92876)
G1 X9.396 Y-7.609 Z2.760 F4800.000 A219.161 (d: 8.32906)
G1 X9.396 Y-9.229 Z2.760 F4800.000 A219.224 (d: 8.17)
G1 X9.804 Y-9.229 Z2.760 F4800.000 A219.240 (d: 8.5785)
G1 X9.804 Y-7.609 Z2.760 F4800.000 A219.303 (d: 8.73012)
G1 X10.212 Y-7.609 Z2.760 F4800.000 A219.318 (d: 9.13184)
G1 X10.212 Y-9.229 Z2.760 F4800.000 A219.381 (d: 8.987)
G1 X10.621 Y-9.229 Z2.760 F4800.000 A219.397 (d: 9.3955)
G1 X10.621 Y-7.609 Z2.760 F4800.000 A219.460 (d: 9.53414)
G1 X11.029 Y-7.609 Z2.760 F4800.000 A219.476 (d: 9.93694)
G1 X11.029 Y-9.229 Z2.760 F4800.000 A219.539 (d: 9.804)
G1 X11.438 Y-9.229 Z2.760 F4800.000 A219.555 (d: 10.2125)
G1 X11.438 Y-7.609 Z2.760 F4800.000 A219.618 (d: 10.3402)
G1 X11.846 Y-7.609 Z2.760 F4800.000 A219.633 (d: 10.7438)
G1 X11.846 Y-9.229 Z2.760 F4800.000 A219.696 (d: 10.621)
G1 X12.255 Y-9.229 Z2.760 F4800.000 A219.712 (d: 11.0295)
G1 X12.255 Y3.709 Z2.760 F4800.000 A220.214 (d: 17.0012)
G1 X16.340 Y3.709 Z2.760 F4800.000 A220.373 (d: 19.8957)
G1 X16.340 Y-9.229 Z2.760 F4800.000 A220.875 (d: 15.1145)
G1 X15.931 Y-9.229 Z2.760 F4800.000 A220.891 (d: 14.706)
G1 X15.931 Y-7.609 Z2.760 F4800.000 A220.954 (d: 14.795)
G1 X15.523 Y-7.609 Z2.760 F4800.000 A220.970 (d: 14.389)
G1 X15.523 Y-9.229 Z2.760 F4800.000 A221.033 (d: 14.2975)
G1 X15.114 Y-9.229 Z2.760 F4800.000 A221.049 (d: 13.889)
G1 X15.114 Y-7.609 Z2.760 F4800.000 A221.111 (d: 13.9832)
G1 X14.706 Y-7.609 Z2.760 F4800.000 A221.127 (d: 13.5775)
G1 X14.706 Y-9.229 Z2.760 F4800.000 A221.190 (d: 13.4805)
G1 X14.297 Y-9.229 Z2.760 F4800.000 A221.206 (d: 13.072)
G1 X14.297 Y-7.609 Z2.760 F4800.000 A221.269 (d: 13.172)
G1 X13.889 Y-7.609 Z2.760 F4800.000 A221.285 (d: 12.7667)
G1 X13.889 Y-9.229 Z2.760 F4800.000 A221.348 (d: 12.6635)
G1 X13.480 Y-9.229 Z2.760 F4800.000 A221.364 (d: 12.255)
G1 X13.480 Y-7.609 Z2.760 F4800.000 A221.426 (d: 12.3616)
G1 X13.072 Y-7.609 Z2.760 F4800.000 A221.442 (d: 11.9568)
G1 X13.072 Y-9.229 Z2.760 F4800.000 A221.505 (d: 11.8465)
G1 X12.663 Y-9.229 Z2.760 F4800.000 A221.521 (d: 11.438)
G1 X12.663 Y-7.609 Z2.760 F4800.000 A221.584 (d: 11.5522)
G1 X16.748 Y-7.609 Z2.760 F4800.000 A221.743 (d: 15.6073)
G1 X16.748 Y-9.229 Z2.760 F4800.000 A221.805 (d: 15.523)
G1 X17.157 Y-9.229 Z2.760 F4800.000 A221.821 (d: 15.9315)
G1 X17.157 Y-7.609 Z2.760 F4800.000 A221.884 (d: 16.0137)
G1 X17.566 Y-7.609 Z2.760 F4800.000 A221.900 (d: 16.4201)
G1 X17.566 Y-9.229 Z2.760 F4800.000 A221.963 (d: 16.34)
G1 X17.974 Y-9.229 Z2.760 F4800.000 A221.979 (d: 16.7485)
G1 X17.974 Y-7.609 Z2.760 F4800.000 A222.042 (d: 16.8267)
G1 X18.383 Y-7.609 Z2.760 F4800.000 A222.058 (d: 17.2333)
G1 X18.383 Y-9.229 Z2.760 F4800.000 A222.120 (d: 17.157)
G1 X18.791 Y-9.229 Z2.760 F4800.000 A222.136 (d: 17.5655)
G1 X18.791 Y-7.609 Z2.760 F4800.000 A222.199 (d: 17.64)
G1 X19.200 Y-7.609 Z2.760 F4800.000 A222.215 (d: 18.0469)
G1 X19.200 Y-9.229 Z2.760 F4800.000 A222.278 (d: 17.974)
G1 F798.000 A221.778 (snort)

(Slice 10, 1 Extruder)
G1 Z3.030 F500.000 (move Z)
(   Extruder 0)
( extruder 0 )
( GSWITCH T0 )
( TODO: add offset management to Gantry )

(inset 0/2 )
(  path 0/1, 5 points,  )
G1 X0.215 Y-9.886 Z3.030 F6000.000 (move into position)
G1 F798.000 A222.278 (squirt)
G1 X0.215 Y3.826 Z3.030 F4800.000 A222.810 (d: 13.712)
G1 X19.785 Y3.826 Z3.030 F4800.000 A223.570 (d: 23.8957)
G1 X19.785 Y-9.886 Z3.030 F4800.000 A224.102 (d: 19.57)
G1 X0.215 Y-9.886 Z3.030 F4800.000 A224.862 (d: 0)
G1 F798.000 A224.362 (snort)

(inset 1/2 )
(  path 0/1, 5 points,  )
G1 X0.602 Y-9.499 Z3.030 F6000.000 (move into position)
G1 F798.000 A224.862 (squirt)
G1 X0.602 Y3.439 Z3.030 F4800.000 A225.364 (d: 12.938)
G1 X19.398 Y3.439 Z3.030 F4800.000 A226.094 (d: 22.8184)
G1 X19.398 Y-9.499 Z3.030 F4800.000 A226.596 (d: 18.796)
G1 X0.602 Y-9.499 Z3.030 F4800.000 A227.326 (d: 0)
G1 F798.000 A226.826 (snort)

(infills: 1)
(  path 0/1, 20 points,  )
G1 X0.602 Y-8.803 Z3.030 F6000.000 (move into position)
G1 F798.000 A227.326 (squirt)
G1 X19.398 Y-8.803 Z3.030 F4800.000 A228.056 (d: 18.796)
G1 X19.398 Y-9.211 Z3.030 F4800.000 A228.072 (d: 18.8004)
G1 X0.602 Y-9.211 Z3.030 F4800.000 A228.801 (d: 0.4085)
G1 X0.602 Y-8.394 Z3.030 F4800.000 A228.833 (d: 0.4085)
G1 X19.398 Y-8.394 Z3.030 F4800.000 A229.563 (d: 18.8004)
G1 X19.398 Y-7.986 Z3.030 F4800.000 A229.578 (d: 18.8137)
G1 X0.602 Y-7.986 Z3.030 F4800.000 A230.308 (d: 0.817)
G1 X0.602 Y-6.760 Z3.030 F4800.000 A230.356 (d: 2.0425)
G1 X19.398 Y-6.760 Z3.030 F4800.000 A231.085 (d: 18.9067)
G1 X19.398 Y-2.675 Z3.030 F4800.000 A231.244 (d: 19.7696)
G1 X0.602 Y-2.675 Z3.030 F4800.000 A231.974 (d: 6.1275)
G1 X0.602 Y1.410 Z3.030 F4800.000 A232.132 (d: 10.2125)
G1 X19.398 Y1.410 Z3.030 F4800.000 A232.862 (d: 21.3912)
G1 X19.398 Y2.227 Z3.030 F4800.000 A232.894 (d: 21.7931)
G1 X0.602 Y2.227 Z3.030 F4800.000 A233.623 (d: 11.0295)
G1 X0.602 Y2.635 Z3.030 F4800.000 A233.639 (d: 11.438)
G1 X19.398 Y2.635 Z3.030 F4800.000 A234.369 (d: 22.0027)
G1 X19.398 Y3.044 Z3.030 F4800.000 A234.385 (d: 22.2178)
G1 X0.602 Y3.044 Z3.030 F4800.000 A235.114 (d: 11.8465)
G1 F798.000 A234.614 (snort)

(Slice 11, 1 Extruder)
G1 Z3.300 F500.000 (move Z)
(   Extruder 0)
( extruder 0 )
( GSWITCH T0 )
( TODO: add offset management to Gantry )

(inset 0/2 )
(  path 0/1, 5 points,  )
G1 X0.215 Y-10.156 Z3.300 F6000.000 (move into position)
G1 F798.000 A235.114 (squirt)
G1 X0.215 Y3.556 Z3.300 F4800.000 A235.647 (d: 13.712)
G1 X19.785 Y3.556 Z3.300 F4800.000 A236.406 (d: 23.8957)
G1 X19.785 Y-10.156 Z3.300 F4800.000 A236.939 (d: 19.57)
G1 X0.215 Y-10.156 Z3.300 F4800.000 A237.699 (d: 0)
G1 F798.000 A237.199 (snort)

(inset 1/2 )
(  path 0/1, 5 points,  )
G1 X0.602 Y-9.769 Z3.300 F6000.000 (move into position)
G1 F798.000 A237.699 (squirt)
G1 X0.602 Y3.169 Z3.300 F4800.000 A238.201 (d: 12.938)
G1 X19.398 Y3.169 Z3.300 F4800.000 A238.930 (d: 22.8184)
G1 X19.398 Y-9.769 Z3.300 F4800.000 A239.433 (d: 18.796)
G1 X0.602 Y-9.769 Z3.300 F4800.000 A240.162 (d: 0)
G1 F798.000 A239.662 (snort)

(infills: 1)
(  path 0/1, 92 points,  )
G1 X1.225 Y-9.769 Z3.300 F6000.000 (move into position)
G1 F798.000 A240.162 (squirt)
G1 X1.225 Y-8.149 Z3.300 F4800.000 A240.225 (d: 1.62)
G1 X0.817 Y-8.149 Z3.300 F4800.000 A240.241 (d: 1.67071)
G1 X0.817 Y-9.769 Z3.300 F4800.000 A240.304 (d: 0.4085)
G1 X1.634 Y-9.769 Z3.300 F4800.000 A240.336 (d: 0.4085)
G1 X1.634 Y-8.149 Z3.300 F4800.000 A240.399 (d: 1.67071)
G1 X2.042 Y-8.149 Z3.300 F4800.000 A240.415 (d: 1.81436)
G1 X2.042 Y-9.769 Z3.300 F4800.000 A240.477 (d: 0.817)
G1 X2.451 Y-9.769 Z3.300 F4800.000 A240.493 (d: 1.2255)
G1 X2.451 Y-8.149 Z3.300 F4800.000 A240.556 (d: 2.03132)
G1 X2.859 Y-8.149 Z3.300 F4800.000 A240.572 (d: 2.30095)
G1 X2.859 Y-9.769 Z3.300 F4800.000 A240.635 (d: 1.634)
G1 X3.268 Y-9.769 Z3.300 F4800.000 A240.651 (d: 2.0425)
G1 X3.268 Y-8.149 Z3.300 F4800.000 A240.714 (d: 2.60695)
G1 X3.676 Y-8.149 Z3.300 F4800.000 A240.730 (d: 2.93799)
G1 X3.676 Y-9.769 Z3.300 F4800.000 A240.792 (d: 2.451)
G1 X4.085 Y-9.769 Z3.300 F4800.000 A240.808 (d: 2.8595)
G1 X4.085 Y3.169 Z3.300 F4800.000 A241.311 (d: 13.2502)
G1 X8.170 Y3.169 Z3.300 F4800.000 A241.469 (d: 14.6839)
G1 X8.170 Y-9.769 Z3.300 F4800.000 A241.971 (d: 6.9445)
G1 X7.761 Y-9.769 Z3.300 F4800.000 A241.987 (d: 6.536)
G1 X7.761 Y-8.149 Z3.300 F4800.000 A242.050 (d: 6.73377)
G1 X7.353 Y-8.149 Z3.300 F4800.000 A242.066 (d: 6.33803)
G1 X7.353 Y-9.769 Z3.300 F4800.000 A242.129 (d: 6.1275)
G1 X6.944 Y-9.769 Z3.300 F4800.000 A242.145 (d: 5.719)
G1 X6.944 Y-8.149 Z3.300 F4800.000 A242.208 (d: 5.94402)
G1 X6.536 Y-8.149 Z3.300 F4800.000 A242.224 (d: 5.5521)
G1 X6.536 Y-9.769 Z3.300 F4800.000 A242.286 (d: 5.3105)
G1 X6.127 Y-9.769 Z3.300 F4800.000 A242.302 (d: 4.902)
G1 X6.127 Y-8.149 Z3.300 F4800.000 A242.365 (d: 5.16275)
G1 X5.719 Y-8.149 Z3.300 F4800.000 A242.381 (d: 4.7766)
G1 X5.719 Y-9.769 Z3.300 F4800.000 A242.444 (d: 4.4935)
G1 X5.310 Y-9.769 Z3.300 F4800.000 A242.460 (d: 4.085)
G1 X5.310 Y-8.149 Z3.300 F4800.000 A242.523 (d: 4.3945)
G1 X4.902 Y-8.149 Z3.300 F4800.000 A242.538 (d: 4.01759)
G1 X4.902 Y-9.769 Z3.300 F4800.000 A242.601 (d: 3.6765)
G1 X4.494 Y-9.769 Z3.300 F4800.000 A242.617 (d: 3.268)
G1 X4.494 Y-8.149 Z3.300 F4800.000 A242.680 (d: 3.6475)
G1 X8.579 Y-8.149 Z3.300 F4800.000 A242.839 (d: 7.52934)
G1 X8.579 Y-9.769 Z3.300 F4800.000 A242.902 (d: 7.353)
G1 X8.987 Y-9.769 Z3.300 F4800.000 A242.917 (d: 7.7615)
G1 X8.987 Y-8.149 Z3.300 F4800.000 A242.980 (d: 7.92876)
G1 X9.396 Y-8.149 Z3.300 F4800.000 A242.996 (d: 8.32906)
G1 X9.396 Y-9.769 Z3.300 F4800.000 A243.059 (d: 8.17)
G1 X9.804 Y-9.769 Z3.300 F4800.000 A243.075 (d: 8.5785)
G1 X9.804 Y-8.149 Z3.300 F4800.000 A243.138 (d: 8.73012)
G1 X10.212 Y-8.149 Z3.300 F4800.000 A243.154 (d: 9.13184)
G1 X10.212 Y-9.769 Z3.300 F4800.000 A243.217 (d: 8.987)
G1 X10.621 Y-9.769 Z3.300 F4800.000 A243.232 (d: 9.3955)
G1 X10.621 Y-8.149 Z3.300 F4800.000 A243.295 (d: 9.53414)
G1 X11.029 Y-8.149 Z3.300 F4800.000 A243.311 (d: 9.93694)
G1 X11.029 Y-9.769 Z3.300 F4800.000 A243.374 (d: 9.804)
G1 X11.438 Y-9.769 Z3.300 F4800.000 A243.390 (d: 10.2125)
G1 X11.438 Y-8.149 Z3.300 F4800.000 A243.453 (d: 10.3402)
G1 X11.846 Y-8.149 Z3.300 F4800.000 A243.469 (d: 10.7438)
G1 X11.846 Y-9.769 Z3.300 F4800.000 A243.532 (d: 10.621)
G1 X12.255 Y-9.769 Z3.300 F4800.000 A243.547 (d: 11.0295)
G1 X12.255 Y3.169 Z3.300 F4800.000 A244.050 (d: 17.0012)
G1 X16.340 Y3.169 Z3.300 F4800.000 A244.208 (d: 19.8957)
G1 X16.340 Y-9.769 Z3.300 F4800.000 A244.711 (d: 15.1145)
G1 X15.931 Y-9.769 Z3.300 F4800.000 A244.726 (d: 14.706)
G1 X15.931 Y-8.149 Z3.300 F4800.000 A244.789 (d: 14.795)
G1 X15.523 Y-8.149 Z3.300 F4800.000 A244.805 (d: 14.389)
G1 X15.523 Y-9.769 Z3.300 F4800.000 A244.868 (d: 14.2975)
G1 X15.114 Y-9.769 Z3.300 F4800.000 A244.884 (d: 13.889)
G1 X15.114 Y-8.149 Z3.300 F4800.000 A244.947 (d: 13.9832)
G1 X14.706 Y-8.149 Z3.300 F4800.000 A244.963 (d: 13.5775)
G1 X14.706 Y-9.769 Z3.300 F4800.000 A245.026 (d: 13.4805)
G1 X14.297 Y-9.769 Z3.300 F4800.000 A245.041 (d: 13.072)
G1 X14.297 Y-8.149 Z3.300 F4800.000 A245.104 (d: 13.172)
G1 X13.889 Y-8.149 Z3.300 F4800.000 A245.120 (d: 12.7667)
G1 X13.889 Y-9.769 Z3.300 F4800.000 A245.183 (d: 12.6635)
G1 X13.480 Y-9.769 Z3.300 F4800.000 A245.199 (d: 12.255)
G1 X13.480 Y-8.149 Z3.300 F4800.000 A245.262 (d: 12.3616)
G1 X13.072 Y-8.149 Z3.300 F4800.000 A245.278 (d: 11.9568)
G1 X13.072 Y-9.769 Z3.300 F4800.000 A245.341 (d: 11.8465)
G1 X12.663 Y-9.769 Z3.300 F4800.000 A245.356 (d: 11.438)
G1 X12.663 Y-8.149 Z3.300 F4800.000 A245.419 (d: 11.5522)
G1 X16.748 Y-8.149 Z3.300 F4800.000 A245.578 (d: 15.6073)
G1 X16.748 Y-9.769 Z3.300 F4800.000 A245.641 (d: 15.523)
G1 X17.157 Y-9.769 Z3.300 F4800.000 A245.657 (d: 15.9315)
G1 X17.157 Y-8.149 Z3.300 F4800.000 A245.720 (d: 16.0137)
G1 X17.566 Y-8.149 Z3.300 F4800.000 A245.735 (d: 16.4201)
G1 X17.566 Y-9.769 Z3.300 F4800.000 A245.798 (d: 16.34)
G1 X17.974 Y-9.769 Z3.300 F4800.000 A245.814 (d: 16.7485)
G1 X17.974 Y-8.149 Z3.300 F4800.000 A245.877 (d: 16.8267)
G1 X18.383 Y-8.149 Z3.300 F4800.000 A245.893 (d: 17.2333)
G1 X18.383 Y-9.769 Z3.300 F4800.000 A245.956 (d: 17.157)
G1 X18.791 Y-9.769 Z3.300 F4800.000 A245.972 (d: 17.5655)
G1 X18.791 Y-8.149 Z3.300 F4800.000 A246.035 (d: 17.64)
G1 X19.200 Y-8.149 Z3.300 F4800.000 A246.050 (d: 18.0469)
G1 X19.200 Y-9.769 Z3.300 F4800.000 A246.113 (d: 17.974)
G1 F798.000 A245.613 (snort)

(Slice 12, 1 Extruder)
G1 Z3.570 F500.000 (move Z)
(   Extruder 0)
( extruder 0 )
( GSWITCH T0 )
( TODO: add offset management to Gantry )

(inset 0/2 )
(  path 0/1, 5 points,  )
G1 X0.215 Y-10.426 Z3.570 F6000.000 (move into position)
G1 F798.000 A246.113 (squirt)
G1 X0.215 Y3.286 Z3.570 F4800.000 A246.646 (d: 13.712)
G1 X19.785 Y3.286 Z3.570 F4800.000 A247.405 (d: 23.8957)
G1 X19.785 Y-10.426 Z3.570 F4800.000 A247.938 (d: 19.57)
G1 X0.215 Y-10.426 Z3.570 F4800.000 A248.697 (d: 0)
G1 F798.000 A248.197 (snort)

(inset 1/2 )
(  path 0/1, 5 points,  )
G1 X0.602 Y-10.039 Z3.570 F6000.000 (move into position)
G1 F798.000 A248.697 (squirt)
G1 X0.602 Y2.899 Z3.570 F4800.000 A249.200 (d: 12.938)
G1 X19.398 Y2.899 Z3.570 F4800.000 A249.929 (d: 22.8184)
G1 X19.398 Y-10.039 Z3.570 F4800.000 A250.432 (d: 18.796)
G1 X0.602 Y-10.039 Z3.570 F4800.000 A251.161 (d: 0)
G1 F798.000 A250.661 (snort)

(infills: 1)
(  path 0/1, 20 points,  )
G1 X0.602 Y-9.620 Z3.570 F6000.000 (move into position)
G1 F798.000 A251.161 (squirt)
G1 X19.398 Y-9.620 Z3.570 F4800.000 A251.891 (d: 18.796)
G1 X19.398 Y-10.028 Z3.570 F4800.000 A251.907 (d: 18.8004)
G1 X0.602 Y-10.028 Z3.570 F4800.000 A252.637 (d: 0.4085)
G1 X0.602 Y-9.211 Z3.570 F4800.000 A252.668 (d: 0.4085)
G1 X19.398 Y-9.211 Z3.570 F4800.000 A253.398 (d: 18.8004)
G1 X19.398 Y-8.803 Z3.570 F4800.000 A253.414 (d: 18.8137)
G1 X0.602 Y-8.803 Z3.570 F4800.000 A254.143 (d: 0.817)
G1 X0.602 Y-6.760 Z3.570 F4800.000 A254.223 (d: 2.8595)
G1 X19.398 Y-6.760 Z3.570 F4800.000 A254.952 (d: 19.0123)
G1 X19.398 Y-2.675 Z3.570 F4800.000 A255.111 (d: 20.0379)
G1 X0.602 Y-2.675 Z3.570 F4800.000 A255.841 (d: 6.9445)
G1 X0.602 Y1.410 Z3.570 F4800.000 A255.999 (d: 11.0295)
G1 X19.398 Y1.410 Z3.570 F4800.000 A256.729 (d: 21.7931)
G1 X19.398 Y1.818 Z3.570 F4800.000 A256.745 (d: 22.0027)
G1 X0.602 Y1.818 Z3.570 F4800.000 A257.475 (d: 11.438)
G1 X0.602 Y2.227 Z3.570 F4800.000 A257.490 (d: 11.8465)
G1 X19.398 Y2.227 Z3.570 F4800.000 A258.220 (d: 22.2178)
G1 X19.398 Y2.635 Z3.570 F4800.000 A258.236 (d: 22.4382)
G1 X0.602 Y2.635 Z3.570 F4800.000 A258.966 (d: 12.255)
G1 F798.000 A258.466 (snort)

(Slice 13, 1 Extruder)
G1 Z3.840 F500.000 (move Z)
(   Extruder 0)
( extruder 0 )
( GSWITCH T0 )
( TODO: add offset management to Gantry )

(inset 0/2 )
(  path 0/1, 5 points,  )
G1 X0.215 Y-10.696 Z3.840 F6000.000 (move into position)
G1 F798.000 A258.966 (squirt)
G1 X0.215 Y3.016 Z3.840 F4800.000 A259.498 (d: 13.712)
G1 X19.785 Y3.016 Z3.840 F4800.000 A260.258 (d: 23.8957)
G1 X19.785 Y-10.696 Z3.840 F4800.000 A260.790 (d: 19.57)
G1 X0.215 Y-10.696 Z3.840 F4800.000 A261.550 (d: 0)
G1 F798.000 A261.050 (snort)

(inset 1/2 )
(  path 0/1, 5 points,  )
G1 X0.602 Y-10.309 Z3.840 F6000.000 (move into position)
G1 F798.000 A261.550 (squirt)
G1 X0.602 Y2.629 Z3.840 F4800.000 A262.052 (d: 12.938)
G1 X19.398 Y2.629 Z3.840 F4800.000 A262.782 (d: 22.8184)
G1 X19.398 Y-10.309 Z3.840 F4800.000 A263.284 (d: 18.796)
G1 X0.602 Y-10.309 Z3.840 F4800.000 A264.014 (d: 0)
G1 F798.000 A263.514 (snort)

(infills: 1)
(  path 0/1, 92 points,  )
G1 X1.225 Y-10.309 Z3.840 F6000.000 (move into position)
G1 F798.000 A264.014 (squirt)
G1 X1.225 Y-8.689 Z3.840 F4800.000 A264.077 (d: 1.62)
G1 X0.817 Y-8.689 Z3.840 F4800.000 A264.092 (d: 1.67071)
G1 X0.817 Y-10.309 Z3.840 F4800.000 A264.155 (d: 0.4085)
G1 X1.634 Y-10.309 Z3.840 F4800.000 A264.187 (d: 0.4085)
G1 X1.634 Y-8.689 Z3.840 F4800.000 A264.250 (d: 1.67071)
G1 X2.042 Y-8.689 Z3.840 F4800.000 A264.266 (d: 1.81436)
G1 X2.042 Y-10.309 Z3.840 F4800.000 A264.329 (d: 0.817)
G1 X2.451 Y-10.309 Z3.840 F4800.000 A264.344 (d: 1.2255)
G1 X2.451 Y-8.689 Z3.840 F4800.000 A264.407 (d: 2.03132)
G1 X2.859 Y-8.689 Z3.840 F4800.000 A264.423 (d: 2.30095)
G1 X2.859 Y-10.309 Z3.840 F4800.000 A264.486 (d: 1.634)
G1 X3.268 Y-10.309 Z3.840 F4800.000 A264.502 (d: 2.0425)
G1 X3.268 Y-8.689 Z3.840 F4800.000 A264.565 (d: 2.60695)
G1 X3.676 Y-8.689 Z3.840 F4800.000 A264.581 (d: 2.93799)
G1 X3.676 Y-10.309 Z3.840 F4800.000 A264.644 (d: 2.451)
G1 X4.085 Y-10.309 Z3.840 F4800.000 A264.659 (d: 2.8595)
G1 X4.085 Y2.629 Z3.840 F4800.000 A265.162 (d: 13.2502)
G1 X8.170 Y2.629 Z3.840 F4800.000 A265.320 (d: 14.6839)
G1 X8.170 Y-10.309 Z3.840 F4800.000 A265.823 (d: 6.9445)
G1 X7.761 Y-10.309 Z3.840 F4800.000 A265.838 (d: 6.536)
G1 X7.761 Y-8.689 Z3.840 F4800.000 A265.901 (d: 6.73377)
G1 X7.353 Y-8.689 Z3.840 F4800.000 A265.917 (d: 6.33803)
G1 X7.353 Y-10.309 Z3.840 F4800.000 A265.980 (d: 6.1275)
G1 X6.944 Y-10.309 Z3.840 F4800.000 A265.996 (d: 5.719)
G1 X6.944 Y-8.689 Z3.840 F4800.000 A266.059 (d: 5.94402)
G1 X6.536 Y-8.689 Z3.840 F4800.000 A266.075 (d: 5.5521)
G1 X6.536 Y-10.309 Z3.840 F4800.000 A266.138 (d: 5.3105)
G1 X6.127 Y-10.309 Z3.840 F4800.000 A266.153 (d: 4.902)
G1 X6.127 Y-8.689 Z3.840 F4800.000 A266.216 (d: 5.16275)
G1 X5.719 Y-8.689 Z3.840 F4800.000 A266.232 (d: 4.7766)
G1 X5.719 Y-10.309 Z3.840 F4800.000 A266.295 (d: 4.4935)
G1 X5.310 Y-10.309 Z3.840 F4800.000 A266.311 (d: 4.085)
G1 X5.310 Y-8.689 Z3.840 F4800.000 A266.374 (d: 4.3945)
G1 X4.902 Y-8.689 Z3.840 F4800.000 A266.390 (d: 4.01759)
G1 X4.902 Y-10.309 Z3.840 F4800.000 A266.453 (d: 3.6765)
G1 X4.494 Y-10.309 Z3.840 F4800.000 A266.468 (d: 3.268)
G1 X4.494 Y-8.689 Z3.840 F4800.000 A266.531 (d: 3.6475)
G1 X8.579 Y-8.689 Z3.840 F4800.000 A266.690 (d: 7.52934)
G1 X8.579 Y-10.309 Z3.840 F4800.000 A266.753 (d: 7.353)
G1 X8.987 Y-10.309 Z3.840 F4800.000 A266.769 (d: 7.7615)
G1 X8.987 Y-8.689 Z3.840 F4800.000 A266.832 (d: 7.92876)
G1 X9.396 Y-8.689 Z3.840 F4800.000 A266.847 (d: 8.32906)
G1 X9.396 Y-10.309 Z3.840 F4800.000 A266.910 (d: 8.17)
G1 X9.804 Y-10.309 Z3.840 F4800.000 A266.926 (d: 8.5785)
G1 X9.804 Y-8.689 Z3.840 F4800.000 A266.989 (d: 8.73012)
G1 X10.212 Y-8.689 Z3.840 F4800.000 A267.005 (d: 9.13184)
G1 X10.212 Y-10.309 Z3.840 F4800.000 A267.068 (d: 8.987)
G1 X10.621 Y-10.309 Z3.840 F4800.000 A267.084 (d: 9.3955)
G1 X10.621 Y-8.689 Z3.840 F4800.000 A267.147 (d: 9.53414)
G1 X11.029 Y-8.689 Z3.840 F4800.000 A267.162 (d: 9.93694)
G1 X11.029 Y-10.309 Z3.840 F4800.000 A267.225 (d: 9.804)
G1 X11.438 Y-10.309 Z3.840 F4800.000 A267.241 (d: 10.2125)
G1 X11.438 Y-8.689 Z3.840 F4800.000 A267.304 (d: 10.3402)
G1 X11.846 Y-8.689 Z3.840 F4800.000 A267.320 (d: 10.7438)
G1 X11.846 Y-10.309 Z3.840 F4800.000 A267.383 (d: 10.621)
G1 X12.255 Y-10.309 Z3.840 F4800.000 A267.399 (d: 11.0295)
G1 X12.255 Y2.629 Z3.840 F4800.000 A267.901 (d: 17.0012)
G1 X16.340 Y2.629 Z3.840 F4800.000 A268.060 (d: 19.8957)
G1 X16.340 Y-10.309 Z3.840 F4800.000 A268.562 (d: 15.1145)
G1 X15.931 Y-10.309 Z3.840 F4800.000 A268.578 (d: 14.706)
G1 X15.931 Y-8.689 Z3.840 F4800.000 A268.641 (d: 14.795)
G1 X15.523 Y-8.689 Z3.840 F4800.000 A268.656 (d: 14.389)
G1 X15.523 Y-10.309 Z3.840 F4800.000 A268.719 (d: 14.2975)
G1 X15.114 Y-10.309 Z3.840 F4800.000 A268.735 (d: 13.889)
G1 X15.114 Y-8.689 Z3.840 F4800.000 A268.798 (d: 13.9832)
G1 X14.706 Y-8.689 Z3.840 F4800.000 A268.814 (d: 13.5775)
G1 X14.706 Y-10.309 Z3.840 F4800.000 A268.877 (d: 13.4805)
G1 X14.297 Y-10.309 Z3.840 F4800.000 A268.893 (d: 13.072)
G1 X14.297 Y-8.689 Z3.840 F4800.000 A268.956 (d: 13.172)
G1 X13.889 Y-8.689 Z3.840 F4800.000 A268.971 (d: 12.7667)
G1 X13.889 Y-10.309 Z3.840 F4800.000 A269.034 (d: 12.6635)
G1 X13.480 Y-10.309 Z3.840 F4800.000 A269.050 (d: 12.255)
G1 X13.480 Y-8.689 Z3.840 F4800.000 A269.113 (d: 12.3616)
G1 X13.072 Y-8.689 Z3.840 F4800.000 A269.129 (d: 11.9568)
G1 X13.072 Y-10.309 Z3.840 F4800.000 A269.192 (d: 11.8465)
G1 X12.663 Y-10.309 Z3.840 F4800.000 A269.208 (d: 11.438)
G1 X12.663 Y-8.689 Z3.840 F4800.000 A269.271 (d: 11.5522)
G1 X16.748 Y-8.689 Z3.840 F4800.000 A269.429 (d: 15.6073)
G1 X16.748 Y-10.309 Z3.840 F4800.000 A269.492 (d: 15.523)
G1 X17.157 Y-10.309 Z3.840 F4800.000 A269.508 (d: 15.9315)
G1 X17.157 Y-8.689 Z3.840 F4800.000 A269.571 (d: 16.0137)
G1 X17.566 Y-8.689 Z3.840 F4800.000 A269.587 (d: 16.4201)
G1 X17.566 Y-10.309 Z3.840 F4800.000 A269.649 (d: 16.34)
G1 X17.974 Y-10.309 Z3.840 F4800.000 A269.665 (d: 16.7485)
G1 X17.974 Y-8.689 Z3.840 F4800.000 A269.728 (d: 16.8267)
G1 X18.383 Y-8.689 Z3.840 F4800.000 A269.744 (d: 17.2333)
G1 X18.383 Y-10.309 Z3.840 F4800.000 A269.807 (d: 17.157)
G1 X18.791 Y-10.309 Z3.840 F4800.000 A269.823 (d: 17.5655)
G1 X18.791 Y-8.689 Z3.840 F4800.000 A269.886 (d: 17.64)
G1 X19.200 Y-8.689 Z3.840 F4800.000 A269.902 (d: 18.0469)
G1 X19.200 Y-10.309 Z3.840 F4800.000 A269.964 (d: 17.974)
G1 F798.000 A269.464 (snort)

(Slice 14, 1 Extruder)
G1 Z4.110 F500.000 (move Z)
(   Extruder 0)
( extruder 0 )
( GSWITCH T0 )
( TODO: add offset management to Gantry )

(inset 0/2 )
(  path 0/1, 5 points,  )
G1 X0.215 Y-10.966 Z4.110 F6000.000 (move into position)
G1 F798.000 A269.964 (squirt)
G1 X0.215 Y2.746 Z4.110 F4800.000 A270.497 (d: 13.712)
G1 X19.785 Y2.746 Z4.110 F4800.000 A271.257 (d: 23.8957)
G1 X19.785 Y-10.966 Z4.110 F4800.000 A271.789 (d: 19.57)
G1 X0.215 Y-10.966 Z4.110 F4800.000 A272.549 (d: 0)
G1 F798.000 A272.049 (snort)

(inset 1/2 )
(  path 0/1, 5 points,  )
G1 X0.602 Y-10.579 Z4.110 F6000.000 (move into position)
G1 F798.000 A272.549 (squirt)
G1 X0.602 Y2.359 Z4.110 F4800.000 A273.051 (d: 12.938)
G1 X19.398 Y2.359 Z4.110 F4800.000 A273.781 (d: 22.8184)
G1 X19.398 Y-10.579 Z4.110 F4800.000 A274.283 (d: 18.796)
G1 X0.602 Y-10.579 Z4.110 F4800.000 A275.012 (d: 0)
G1 F798.000 A274.512 (snort)

(infills: 1)
(  path 0/1, 20 points,  )
G1 X0.602 Y-10.028 Z4.110 F6000.000 (move into position)
G1 F798.000 A275.012 (squirt)
G1 X19.398 Y-10.028 Z4.110 F4800.000 A275.742 (d: 18.796)
G1 X19.398 Y-10.437 Z4.110 F4800.000 A275.758 (d: 18.8004)
G1 X0.602 Y-10.437 Z4.110 F4800.000 A276.488 (d: 0.4085)
G1 X0.602 Y-9.620 Z4.110 F4800.000 A276.519 (d: 0.4085)
G1 X19.398 Y-9.620 Z4.110 F4800.000 A277.249 (d: 18.8004)
G1 X19.398 Y-9.211 Z4.110 F4800.000 A277.265 (d: 18.8137)
G1 X0.602 Y-9.211 Z4.110 F4800.000 A277.995 (d: 0.817)
G1 X0.602 Y-6.760 Z4.110 F4800.000 A278.090 (d: 3.268)
G1 X19.398 Y-6.760 Z4.110 F4800.000 A278.819 (d: 19.078)
G1 X19.398 Y-2.675 Z4.110 F4800.000 A278.978 (d: 20.1831)
G1 X0.602 Y-2.675 Z4.110 F4800.000 A279.708 (d: 7.353)
G1 X0.602 Y1.001 Z4.110 F4800.000 A279.850 (d: 11.0295)
G1 X19.398 Y1.001 Z4.110 F4800.000 A280.580 (d: 21.7931)
G1 X19.398 Y1.410 Z4.110 F4800.000 A280.596 (d: 22.0027)
G1 X0.602 Y1.410 Z4.110 F4800.000 A281.326 (d: 11.438)
G1 X0.602 Y1.818 Z4.110 F4800.000 A281.342 (d: 11.8465)
G1 X19.398 Y1.818 Z4.110 F4800.000 A282.071 (d: 22.2178)
G1 X19.398 Y2.227 Z4.110 F4800.000 A282.087 (d: 22.4382)
G1 X0.602 Y2.227 Z4.110 F4800.000 A282.817 (d: 12.255)
G1 F798.000 A282.317 (snort)

(Slice 15, 1 Extruder)
G1 Z4.380 F500.000 (move Z)
(   Extruder 0)
( extruder 0 )
( GSWITCH T0 )
( TODO: add offset management to Gantry )

(inset 0/2 )
(  path 0/1, 5 points,  )
G1 X0.215 Y-11.236 Z4.380 F6000.000 (move into position)
G1 F798.000 A282.817 (squirt)
G1 X0.215 Y2.476 Z4.380 F4800.000 A283.349 (d: 13.712)
G1 X19.785 Y2.476 Z4.380 F4800.000 A284.109 (d: 23.8957)
G1 X19.785 Y-11.236 Z4.380 F4800.000 A284.641 (d: 19.57)
G1 X0.215 Y-11.236 Z4.380 F4800.000 A285.401 (d: 0)
G1 F798.000 A284.901 (snort)

(inset 1/2 )
(  path 0/1, 5 points,  )
G1 X0.602 Y-10.849 Z4.380 F6000.000 (move into position)
G1 F798.000 A285.401 (squirt)
G1 X0.602 Y2.089 Z4.380 F4800.000 A285.903 (d: 12.938)
G1 X19.398 Y2.089 Z4.380 F4800.000 A286.633 (d: 22.8184)
G1 X19.398 Y-10.849 Z4.380 F4800.000 A287.135 (d: 18.796)
G1 X0.602 Y-10.849 Z4.380 F4800.000 A287.865 (d: 0)
G1 F798.000 A287.365 (snort)

(infills: 1)
(  path 0/1, 92 points,  )
G1 X1.225 Y-10.849 Z4.380 F6000.000 (move into position)
G1 F798.000 A287.865 (squirt)
G1 X1.225 Y-9.229 Z4.380 F4800.000 A287.928 (d: 1.62)
G1 X0.817 Y-9.229 Z4.380 F4800.000 A287.944 (d: 1.67071)
G1 X0.817 Y-10.849 Z4.380 F4800.000 A288.006 (d: 0.4085)
G1 X1.634 Y-10.849 Z4.380 F4800.000 A288.038 (d: 0.4085)
G1 X1.634 Y-9.229 Z4.380 F4800.000 A288.101 (d: 1.67071)
G1 X2.042 Y-9.229 Z4.380 F4800.000 A288.117 (d: 1.81436)
G1 X2.042 Y-10.849 Z4.380 F4800.000 A288.180 (d: 0.817)
G1 X2.451 Y-10.849 Z4.380 F4800.000 A288.196 (d: 1.2255)
G1 X2.451 Y-9.229 Z4.380 F4800.000 A288.259 (d: 2.03132)
G1 X2.859 Y-9.229 Z4.380 F4800.000 A288.274 (d: 2.30095)
G1 X2.859 Y-10.849 Z4.380 F4800.000 A288.337 (d: 1.634)
G1 X3.268 Y-10.849 Z4.380 F4800.000 A288.353 (d: 2.0425)
G1 X3.268 Y-9.229 Z4.380 F4800.000 A288.416 (d: 2.60695)
G1 X3.676 Y-9.229 Z4.380 F4800.000 A288.432 (d: 2.93799)
G1 X3.676 Y-10.849 Z4.380 F4800.000 A288.495 (d: 2.451)
G1 X4.085 Y-10.849 Z4.380 F4800.000 A288.511 (d: 2.8595)
G1 X4.085 Y2.089 Z4.380 F4800.000 A289.013 (d: 13.2502)
G1 X8.170 Y2.089 Z4.380 F4800.000 A289.172 (d: 14.6839)
G1 X8.170 Y-10.849 Z4.380 F4800.000 A289.674 (d: 6.9445)
G1 X7.761 Y-10.849 Z4.380 F4800.000 A289.690 (d: 6.536)
G1 X7.761 Y-9.229 Z4.380 F4800.000 A289.753 (d: 6.73377)
G1 X7.353 Y-9.229 Z4.380 F4800.000 A289.768 (d: 6.33803)
G1 X7.353 Y-10.849 Z4.380 F4800.000 A289.831 (d: 6.1275)
G1 X6.944 Y-10.849 Z4.380 F4800.000 A289.847 (d: 5.719)
G1 X6.944 Y-9.229 Z4.380 F4800.000 A289.910 (d: 5.94402)
G1 X6.536 Y-9.229 Z4.380 F4800.000 A289.926 (d: 5.5521)
G1 X6.536 Y-10.849 Z4.380 F4800.000 A289.989 (d: 5.3105)
G1 X6.127 Y-10.849 Z4.380 F4800.000 A290.005 (d: 4.902)
G1 X6.127 Y-9.229 Z4.380 F4800.000 A290.068 (d: 5.16275)
G1 X5.719 Y-9.229 Z4.380 F4800.000 A290.083 (d: 4.7766)
G1 X5.719 Y-10.849 Z4.380 F4800.000 A290.146 (d: 4.4935)
G1 X5.310 Y-10.849 Z4.380 F4800.000 A290.162 (d: 4.085)
G1 X5.310 Y-9.229 Z4.380 F4800.000 A290.225 (d: 4.3945)
G1 X4.902 Y-9.229 Z4.380 F4800.000 A290.241 (d: 4.01759)
G1 X4.902 Y-10.849 Z4.380 F4800.000 A290.304 (d: 3.6765)
G1 X4.494 Y-10.849 Z4.380 F4800.000 A290.320 (d: 3.268)
G1 X4.494 Y-9.229 Z4.380 F4800.000 A290.383 (d: 3.6475)
G1 X8.579 Y-9.229 Z4.380 F4800.000 A290.541 (d: 7.52934)
G1 X8.579 Y-10.849 Z4.380 F4800.000 A290.604 (d: 7.353)
G1 X8.987 Y-10.849 Z4.380 F4800.000 A290.620 (d: 7.7615)
G1 X8.987 Y-9.229 Z4.380 F4800.000 A290.683 (d: 7.92876)
G1 X9.396 Y-9.229 Z4.380 F4800.000 A290.699 (d: 8.32906)
G1 X9.396 Y-10.849 Z4.380 F4800.000 A290.761 (d: 8.17)
G1 X9.804 Y-10.849 Z4.380 F4800.000 A290.777 (d: 8.5785)
G1 X9.804 Y-9.229 Z4.380 F4800.000 A290.840 (d: 8.73012)
G1 X10.212 Y-9.229 Z4.380 F4800.000 A290.856 (d: 9.13184)
G1 X10.212 Y-10.849 Z4.380 F4800.000 A290.919 (d: 8.987)
G1 X10.621 Y-10.849 Z4.380 F4800.000 A290.935 (d: 9.3955)
G1 X10.621 Y-9.229 Z4.380 F4800.000 A290.998 (d: 9.53414)
G1 X11.029 Y-9.229 Z4.380 F4800.000 A291.014 (d: 9.93694)
G1 X11.029 Y-10.849 Z4.380 F4800.000 A291.076 (d: 9.804)
G1 X11.438 Y-10.849 Z4.380 F4800.000 A291.092 (d: 10.2125)
G1 X11.438 Y-9.229 Z4.380 F4800.000 A291.155 (d: 10.3402)
G1 X11.846 Y-9.229 Z4.380 F4800.000 A291.171 (d: 10.7438)
G1 X11.846 Y-10.849 Z4.380 F4800.000 A291.234 (d: 10.621)
G1 X12.255 Y-10.849 Z4.380 F4800.000 A291.250 (d: 11.0295)
G1 X12.255 Y2.089 Z4.380 F4800.000 A291.752 (d: 17.0012)
G1 X16.340 Y2.089 Z4.380 F4800.000 A291.911 (d: 19.8957)
G1 X16.340 Y-10.849 Z4.380 F4800.000 A292.413 (d: 15.1145)
G1 X15.931 Y-10.849 Z4.380 F4800.000 A292.429 (d: 14.706)
G1 X15.931 Y-9.229 Z4.380 F4800.000 A292.492 (d: 14.795)
G1 X15.523 Y-9.229 Z4.380 F4800.000 A292.508 (d: 14.389)
G1 X15.523 Y-10.849 Z4.380 F4800.000 A292.570 (d: 14.2975)
G1 X15.114 Y-10.849 Z4.380 F4800.000 A292.586 (d: 13.889)
G1 X15.114 Y-9.229 Z4.380 F4800.000 A292.649 (d: 13.9832)
G1 X14.706 Y-9.229 Z4.380 F4800.000 A292.665 (d: 13.5775)
G1 X14.706 Y-10.849 Z4.380 F4800.000 A292.728 (d: 13.4805)
G1 X14.297 Y-10.849 Z4.380 F4800.000 A292.744 (d: 13.072)
G1 X14.297 Y-9.229 Z4.380 F4800.000 A292.807 (d: 13.172)
G1 X13.889 Y-9.229 Z4.380 F4800.000 A292.823 (d: 12.7667)
G1 X13.889 Y-10.849 Z4.380 F4800.000 A292.885 (d: 12.6635)
G1 X13.480 Y-10.849 Z4.380 F4800.000 A292.901 (d: 12.255)
G1 X13.480 Y-9.229 Z4.380 F4800.000 A292.964 (d: 12.3616)
G1 X13.072 Y-9.229 Z4.380 F4800.000 A292.980 (d: 11.9568)
G1 X13.072 Y-10.849 Z4.380 F4800.000 A293.043 (d: 11.8465)
G1 X12.663 Y-10.849 Z4.380 F4800.000 A293.059 (d: 11.438)
G1 X12.663 Y-9.229 Z4.380 F4800.000 A293.122 (d: 11.5522)
G1 X16.748 Y-9.229 Z4.380 F4800.000 A293.280 (d: 15.6073)
G1 X16.748 Y-10.849 Z4.380 F4800.000 A293.343 (d: 15.523)
G1 X17.157 Y-10.849 Z4.380 F4800.000 A293.359 (d: 15.9315)
G1 X17.157 Y-9.229 Z4.380 F4800.000 A293.422 (d: 16.0137)
G1 X17.566 Y-9.229 Z4.380 F4800.000 A293.438 (d: 16.4201)
G1 X17.566 Y-10.849 Z4.380 F4800.000 A293.501 (d: 16.34)
G1 X17.974 Y-10.849 Z4.380 F4800.000 A293.517 (d: 16.7485)
G1 X17.974 Y-9.229 Z4.380 F4800.000 A293.579 (d: 16.8267)
G1 X18.383 Y-9.229 Z4.380 F4800.000 A293.595 (d: 17.2333)
G1 X18.383 Y-10.849 Z4.380 F4800.000 A293.658 (d: 17.157)
G1 X18.791 Y-10.849 Z4.380 F4800.000 A293.674 (d: 17.5655)
G1 X18.791 Y-9.229 Z4.380 F4800.000 A293.737 (d: 17.64)
G1 X19.200 Y-9.229 Z4.380 F4800.000 A293.753 (d: 18.0469)
G1 X19.200 Y-10.849 Z4.380 F4800.000 A293.816 (d: 17.974)
G1 F798.000 A293.316 (snort)

(Slice 16, 1 Extruder)
G1 Z4.650 F500.000 (move Z)
(   Extruder 0)
( extruder 0 )
( GSWITCH T0 )
( TODO: add offset management to Gantry )

(inset 0/2 )
(  path 0/1, 5 points,  )
G1 X0.215 Y-11.506 Z4.650 F6000.000 (move into position)
G1 F798.000 A293.816 (squirt)
G1 X0.215 Y2.206 Z4.650 F4800.000 A294.348 (d: 13.712)
G1 X19.785 Y2.206 Z4.650 F4800.000 A295.108 (d: 23.8957)
G1 X19.785 Y-11.506 Z4.650 F4800.000 A295.640 (d: 19.57)
G1 X0.215 Y-11.506 Z4.650 F4800.000 A296.400 (d: 0)
G1 F798.000 A295.900 (snort)

(inset 1/2 )
(  path 0/1, 5 points,  )
G1 X0.602 Y-11.119 Z4.650 F6000.000 (move into position)
G1 F798.000 A296.400 (squirt)
G1 X0.602 Y1.819 Z4.650 F4800.000 A296.902 (d: 12.938)
G1 X19.398 Y1.819 Z4.650 F4800.000 A297.632 (d: 22.8184)
G1 X19.398 Y-11.119 Z4.650 F4800.000 A298.134 (d: 18.796)
G1 X0.602 Y-11.119 Z4.650 F4800.000 A298.864 (d: 0)
G1 F798.000 A298.364 (snort)

(infills: 1)
(  path 0/1, 20 points,  )
G1 X0.602 Y-10.437 Z4.650 F6000.000 (move into position)
G1 F798.000 A298.864 (squirt)
G1 X19.398 Y-10.437 Z4.650 F4800.000 A299.593 (d: 18.796)
G1 X19.398 Y-10.845 Z4.650 F4800.000 A299.609 (d: 18.8004)
G1 X0.602 Y-10.845 Z4.650 F4800.000 A300.339 (d: 0.4085)
G1 X0.602 Y-10.028 Z4.650 F4800.000 A300.371 (d: 0.4085)
G1 X19.398 Y-10.028 Z4.650 F4800.000 A301.100 (d: 18.8004)
G1 X19.398 Y-9.620 Z4.650 F4800.000 A301.116 (d: 18.8137)
G1 X0.602 Y-9.620 Z4.650 F4800.000 A301.846 (d: 0.817)
G1 X0.602 Y-6.760 Z4.650 F4800.000 A301.957 (d: 3.6765)
G1 X19.398 Y-6.760 Z4.650 F4800.000 A302.687 (d: 19.1522)
G1 X19.398 Y-2.675 Z4.650 F4800.000 A302.845 (d: 20.3354)
G1 X0.602 Y-2.675 Z4.650 F4800.000 A303.575 (d: 7.7615)
G1 X0.602 Y0.593 Z4.650 F4800.000 A303.702 (d: 11.0295)
G1 X19.398 Y0.593 Z4.650 F4800.000 A304.431 (d: 21.7931)
G1 X19.398 Y1.001 Z4.650 F4800.000 A304.447 (d: 22.0027)
G1 X0.602 Y1.001 Z4.650 F4800.000 A305.177 (d: 11.438)
G1 X0.602 Y1.410 Z4.650 F4800.000 A305.193 (d: 11.8465)
G1 X19.398 Y1.410 Z4.650 F4800.000 A305.922 (d: 22.2178)
G1 X19.398 Y1.818 Z4.650 F4800.000 A305.938 (d: 22.4382)
G1 X0.602 Y1.818 Z4.650 F4800.000 A306.668 (d: 12.255)
G1 F798.000 A306.168 (snort)

(Slice 17, 1 Extruder)
G1 Z4.920 F500.000 (move Z)
(   Extruder 0)
( extruder 0 )
( GSWITCH T0 )
( TODO: add offset management to Gantry )

(inset 0/2 )
(  path 0/1, 5 points,  )
G1 X0.215 Y-11.776 Z4.920 F6000.000 (move into position)
G1 F798.000 A306.668 (squirt)
G1 X0.215 Y1.936 Z4.920 F4800.000 A307.200 (d: 13.712)
G1 X19.785 Y1.936 Z4.920 F4800.000 A307.960 (d: 23.8957)
G1 X19.785 Y-11.776 Z4.920 F4800.000 A308.492 (d: 19.57)
G1 X0.215 Y-11.776 Z4.920 F4800.000 A309.252 (d: 0)
G1 F798.000 A308.752 (snort)

(inset 1/2 )
(  path 0/1, 5 points,  )
G1 X0.602 Y-11.389 Z4.920 F6000.000 (move into position)
G1 F798.000 A309.252 (squirt)
G1 X0.602 Y1.549 Z4.920 F4800.000 A309.754 (d: 12.938)
G1 X19.398 Y1.549 Z4.920 F4800.000 A310.484 (d: 22.8184)
G1 X19.398 Y-11.389 Z4.920 F4800.000 A310.986 (d: 18.796)
G1 X0.602 Y-11.389 Z4.920 F4800.000 A311.716 (d: 0)
G1 F798.000 A311.216 (snort)

(infills: 1)
(  path 0/1, 92 points,  )
G1 X1.225 Y-11.389 Z4.920 F6000.000 (move into position)
G1 F798.000 A311.716 (squirt)
G1 X1.225 Y-9.769 Z4.920 F4800.000 A311.779 (d: 1.62)
G1 X0.817 Y-9.769 Z4.920 F4800.000 A311.795 (d: 1.67071)
G1 X0.817 Y-11.389 Z4.920 F4800.000 A311.858 (d: 0.4085)
G1 X1.634 Y-11.389 Z4.920 F4800.000 A311.889 (d: 0.4085)
G1 X1.634 Y-9.769 Z4.920 F4800.000 A311.952 (d: 1.67071)
G1 X2.042 Y-9.769 Z4.920 F4800.000 A311.968 (d: 1.81436)
G1 X2.042 Y-11.389 Z4.920 F4800.000 A312.031 (d: 0.817)
G1 X2.451 Y-11.389 Z4.920 F4800.000 A312.047 (d: 1.2255)
G1 X2.451 Y-9.769 Z4.920 F4800.000 A312.110 (d: 2.03132)
G1 X2.859 Y-9.769 Z4.920 F4800.000 A312.126 (d: 2.30095)
G1 X2.859 Y-11.389 Z4.920 F4800.000 A312.188 (d: 1.634)
G1 X3.268 Y-11.389 Z4.920 F4800.000 A312.204 (d: 2.0425)
G1 X3.268 Y-9.769 Z4.920 F4800.000 A312.267 (d: 2.60695)
G1 X3.676 Y-9.769 Z4.920 F4800.000 A312.283 (d: 2.93799)
G1 X3.676 Y-11.389 Z4.920 F4800.000 A312.346 (d: 2.451)
G1 X4.085 Y-11.389 Z4.920 F4800.000 A312.362 (d: 2.8595)
G1 X4.085 Y1.549 Z4.920 F4800.000 A312.864 (d: 13.2502)
G1 X8.170 Y1.549 Z4.920 F4800.000 A313.023 (d: 14.6839)
G1 X8.170 Y-11.389 Z4.920 F4800.000 A313.525 (d: 6.9445)
G1 X7.761 Y-11.389 Z4.920 F4800.000 A313.541 (d: 6.536)
G1 X7.761 Y-9.769 Z4.920 F4800.000 A313.604 (d: 6.73377)
G1 X7.353 Y-9.769 Z4.920 F4800.000 A313.620 (d: 6.33803)
G1 X7.353 Y-11.389 Z4.920 F4800.000 A313.682 (d: 6.1275)
G1 X6.944 Y-11.389 Z4.920 F4800.000 A313.698 (d: 5.719)
G1 X6.944 Y-9.769 Z4.920 F4800.000 A313.761 (d: 5.94402)
G1 X6.536 Y-9.769 Z4.920 F4800.000 A313.777 (d: 5.5521)
G1 X6.536 Y-11.389 Z4.920 F4800.000 A313.840 (d: 5.3105)
G1 X6.127 Y-11.389 Z4.920 F4800.000 A313.856 (d: 4.902)
G1 X6.127 Y-9.769 Z4.920 F4800.000 A313.919 (d: 5.16275)
G1 X5.719 Y-9.769 Z4.920 F4800.000 A313.935 (d: 4.7766)
G1 X5.719 Y-11.389 Z4.920 F4800.000 A313.997 (d: 4.4935)
G1 X5.310 Y-11.389 Z4.920 F4800.000 A314.013 (d: 4.085)
G1 X5.310 Y-9.769 Z4.920 F4800.000 A314.076 (d: 4.3945)
G1 X4.902 Y-9.769 Z4.920 F4800.000 A314.092 (d: 4.01759)
G1 X4.902 Y-11.389 Z4.920 F4800.000 A314.155 (d: 3.6765)
G1 X4.494 Y-11.389 Z4.920 F4800.000 A314.171 (d: 3.268)
G1 X4.494 Y-9.769 Z4.920 F4800.000 A314.234 (d: 3.6475)
G1 X8.579 Y-9.769 Z4.920 F4800.000 A314.392 (d: 7.52934)
G1 X8.579 Y-11.389 Z4.920 F4800.000 A314.455 (d: 7.353)
G1 X8.987 Y-11.389 Z4.920 F4800.000 A314.471 (d: 7.7615)
G1 X8.987 Y-9.769 Z4.920 F4800.000 A314.534 (d: 7.92876)
G1 X9.396 Y-9.769 Z4.920 F4800.000 A314.550 (d: 8.32906)
G1 X9.396 Y-11.389 Z4.920 F4800.000 A314.613 (d: 8.17)
G1 X9.804 Y-11.389 Z4.920 F4800.000 A314.629 (d: 8.5785)
G1 X9.804 Y-9.769 Z4.920 F4800.000 A314.691 (d: 8.73012)
G1 X10.212 Y-9.769 Z4.920 F4800.000 A314.707 (d: 9.13184)
G1 X10.212 Y-11.389 Z4.920 F4800.000 A314.770 (d: 8.987)
G1 X10.621 Y-11.389 Z4.920 F4800.000 A314.786 (d: 9.3955)
G1 X10.621 Y-9.769 Z4.920 F4800.000 A314.849 (d: 9.53414)
G1 X11.029 Y-9.769 Z4.920 F4800.000 A314.865 (d: 9.93694)
G1 X11.029 Y-11.389 Z4.920 F4800.000 A314.928 (d: 9.804)
G1 X11.438 Y-11.389 Z4.920 F4800.000 A314.944 (d: 10.2125)
G1 X11.438 Y-9.769 Z4.920 F4800.000 A315.006 (d: 10.3402)
G1 X11.846 Y-9.769 Z4.920 F4800.000 A315.022 (d: 10.7438)
G1 X11.846 Y-11.389 Z4.920 F4800.000 A315.085 (d: 10.621)
G1 X12.255 Y-11.389 Z4.920 F4800.000 A315.101 (d: 11.0295)
G1 X12.255 Y1.549 Z4.920 F4800.000 A315.603 (d: 17.0012)
G1 X16.340 Y1.549 Z4.920 F4800.000 A315.762 (d: 19.8957)
G1 X16.340 Y-11.389 Z4.920 F4800.000 A316.264 (d: 15.1145)
G1 X15.931 Y-11.389 Z4.920 F4800.000 A316.280 (d: 14.706)
G1 X15.931 Y-9.769 Z4.920 F4800.000 A316.343 (d: 14.795)
G1 X15.523 Y-9.769 Z4.920 F4800.000 A316.359 (d: 14.389)
G1 X15.523 Y-11.389 Z4.920 F4800.000 A316.422 (d: 14.2975)
G1 X15.114 Y-11.389 Z4.920 F4800.000 A316.438 (d: 13.889)
G1 X15.114 Y-9.769 Z4.920 F4800.000 A316.500 (d: 13.9832)
G1 X14.706 Y-9.769 Z4.920 F4800.000 A316.516 (d: 13.5775)
G1 X14.706 Y-11.389 Z4.920 F4800.000 A316.579 (d: 13.4805)
G1 X14.297 Y-11.389 Z4.920 F4800.000 A316.595 (d: 13.072)
G1 X14.297 Y-9.769 Z4.920 F4800.000 A316.658 (d: 13.172)
G1 X13.889 Y-9.769 Z4.920 F4800.000 A316.674 (d: 12.7667)
G1 X13.889 Y-11.389 Z4.920 F4800.000 A316.737 (d: 12.6635)
G1 X13.480 Y-11.389 Z4.920 F4800.000 A316.753 (d: 12.255)
G1 X13.480 Y-9.769 Z4.920 F4800.000 A316.815 (d: 12.3616)
G1 X13.072 Y-9.769 Z4.920 F4800.000 A316.831 (d: 11.9568)
G1 X13.072 Y-11.389 Z4.920 F4800.000 A316.894 (d: 11.8465)
G1 X12.663 Y-11.389 Z4.920 F4800.000 A316.910 (d: 11.438)
G1 X12.663 Y-9.769 Z4.920 F4800.000 A316.973 (d: 11.5522)
G1 X16.748 Y-9.769 Z4.920 F4800.000 A317.131 (d: 15.6073)
G1 X16.748 Y-11.389 Z4.920 F4800.000 A317.194 (d: 15.523)
G1 X17.157 Y-11.389 Z4.920 F4800.000 A317.210 (d: 15.9315)
G1 X17.157 Y-9.769 Z4.920 F4800.000 A317.273 (d: 16.0137)
G1 X17.566 Y-9.769 Z4.920 F4800.000 A317.289 (d: 16.4201)
G1 X17.566 Y-11.389 Z4.920 F4800.000 A317.352 (d: 16.34)
G1 X17.974 Y-11.389 Z4.920 F4800.000 A317.368 (d: 16.7485)
G1 X17.974 Y-9.769 Z4.920 F4800.000 A317.431 (d: 16.8267)
G1 X18.383 Y-9.769 Z4.920 F4800.000 A317.446 (d: 17.2333)
G1 X18.383 Y-11.389 Z4.920 F4800.000 A317.509 (d: 17.157)
G1 X18.791 Y-11.389 Z4.920 F4800.000 A317.525 (d: 17.5655)
G1 X18.791 Y-9.769 Z4.920 F4800.000 A317.588 (d: 17.64)
G1 X19.200 Y-9.769 Z4.920 F4800.000 A317.604 (d: 18.0469)
G1 X19.200 Y-11.389 Z4.920 F4800.000 A317.667 (d: 17.974)
G1 F798.000 A317.167 (snort)

(Slice 18, 1 Extruder)
G1 Z5.190 F500.000 (move Z)
(   Extruder 0)
( extruder 0 )
( GSWITCH T0 )
( TODO: add offset management to Gantry )

(inset 0/2 )
(  path 0/1, 5 points,  )
G1 X0.215 Y-12.046 Z5.190 F6000.000 (move into position)
G1 F798.000 A317.667 (squirt)
G1 X0.215 Y1.666 Z5.190 F4800.000 A318.199 (d: 13.712)
G1 X19.785 Y1.666 Z5.190 F4800.000 A318.959 (d: 23.8957)
G1 X19.785 Y-12.046 Z5.190 F4800.000 A319.491 (d: 19.57)
G1 X0.215 Y-12.046 Z5.190 F4800.000 A320.251 (d: 0)
G1 F798.000 A319.751 (snort)

(inset 1/2 )
(  path 0/1, 5 points,  )
G1 X0.602 Y-11.659 Z5.190 F6000.000 (move into position)
G1 F798.000 A320.251 (squirt)
G1 X0.602 Y1.279 Z5.190 F4800.000 A320.753 (d: 12.938)
G1 X19.398 Y1.279 Z5.190 F4800.000 A321.483 (d: 22.8184)
G1 X19.398 Y-11.659 Z5.190 F4800.000 A321.985 (d: 18.796)
G1 X0.602 Y-11.659 Z5.190 F4800.000 A322.715 (d: 0)
G1 F798.000 A322.215 (snort)

(infills: 1)
(  path 0/1, 18 points,  )
G1 X0.602 Y-10.845 Z5.190 F6000.000 (move into position)
G1 F798.000 A322.715 (squirt)
G1 X19.398 Y-10.845 Z5.190 F4800.000 A323.445 (d: 18.796)
G1 X19.398 Y-11.254 Z5.190 F4800.000 A323.460 (d: 18.8004)
G1 X0.602 Y-11.254 Z5.190 F4800.000 A324.190 (d: 0.4085)
G1 X0.602 Y-10.437 Z5.190 F4800.000 A324.222 (d: 0.4085)
G1 X19.398 Y-10.437 Z5.190 F4800.000 A324.952 (d: 18.8004)
G1 X19.398 Y-6.760 Z5.190 F4800.000 A325.094 (d: 19.2348)
G1 X0.602 Y-6.760 Z5.190 F4800.000 A325.824 (d: 4.085)
G1 X0.602 Y-2.675 Z5.190 F4800.000 A325.982 (d: 8.17)
G1 X19.398 Y-2.675 Z5.190 F4800.000 A326.712 (d: 20.4948)
G1 X19.398 Y-0.224 Z5.190 F4800.000 A326.807 (d: 21.5892)
G1 X0.602 Y-0.224 Z5.190 F4800.000 A327.537 (d: 10.621)
G1 X0.602 Y0.184 Z5.190 F4800.000 A327.553 (d: 11.0295)
G1 X19.398 Y0.184 Z5.190 F4800.000 A328.283 (d: 21.7931)
G1 X19.398 Y0.593 Z5.190 F4800.000 A328.298 (d: 22.0027)
G1 X0.602 Y0.593 Z5.190 F4800.000 A329.028 (d: 11.438)
G1 X0.602 Y1.001 Z5.190 F4800.000 A329.044 (d: 11.8465)
G1 X19.398 Y1.001 Z5.190 F4800.000 A329.774 (d: 22.2178)
G1 F798.000 A329.274 (snort)

(Slice 19, 1 Extruder)
G1 Z5.460 F500.000 (move Z)
(   Extruder 0)
( extruder 0 )
( GSWITCH T0 )
( TODO: add offset management to Gantry )

(inset 0/2 )
(  path 0/1, 5 points,  )
G1 X0.215 Y-12.316 Z5.460 F6000.000 (move into position)
G1 F798.000 A329.774 (squirt)
G1 X0.215 Y1.396 Z5.460 F4800.000 A330.306 (d: 13.712)
G1 X19.785 Y1.396 Z5.460 F4800.000 A331.066 (d: 23.8957)
G1 X19.785 Y-12.316 Z5.460 F4800.000 A331.598 (d: 19.57)
G1 X0.215 Y-12.316 Z5.460 F4800.000 A332.358 (d: 0)
G1 F798.000 A331.858 (snort)

(inset 1/2 )
(  path 0/1, 5 points,  )
G1 X0.602 Y-11.929 Z5.460 F6000.000 (move into position)
G1 F798.000 A332.358 (squirt)
G1 X0.602 Y1.009 Z5.460 F4800.000 A332.860 (d: 12.938)
G1 X19.398 Y1.009 Z5.460 F4800.000 A333.590 (d: 22.8184)
G1 X19.398 Y-11.929 Z5.460 F4800.000 A334.092 (d: 18.796)
G1 X0.602 Y-11.929 Z5.460 F4800.000 A334.822 (d: 0)
G1 F798.000 A334.322 (snort)

(infills: 1)
(  path 0/1, 92 points,  )
G1 X1.225 Y-11.929 Z5.460 F6000.000 (move into position)
G1 F798.000 A334.822 (squirt)
G1 X1.225 Y-10.309 Z5.460 F4800.000 A334.885 (d: 1.62)
G1 X0.817 Y-10.309 Z5.460 F4800.000 A334.900 (d: 1.67071)
G1 X0.817 Y-11.929 Z5.460 F4800.000 A334.963 (d: 0.4085)
G1 X1.634 Y-11.929 Z5.460 F4800.000 A334.995 (d: 0.4085)
G1 X1.634 Y-10.309 Z5.460 F4800.000 A335.058 (d: 1.67071)
G1 X2.042 Y-10.309 Z5.460 F4800.000 A335.074 (d: 1.81436)
G1 X2.042 Y-11.929 Z5.460 F4800.000 A335.137 (d: 0.817)
G1 X2.451 Y-11.929 Z5.460 F4800.000 A335.153 (d: 1.2255)
G1 X2.451 Y-10.309 Z5.460 F4800.000 A335.215 (d: 2.03132)
G1 X2.859 Y-10.309 Z5.460 F4800.000 A335.231 (d: 2.30095)
G1 X2.859 Y-11.929 Z5.460 F4800.000 A335.294 (d: 1.634)
G1 X3.268 Y-11.929 Z5.460 F4800.000 A335.310 (d: 2.0425)
G1 X3.268 Y-10.309 Z5.460 F4800.000 A335.373 (d: 2.60695)
G1 X3.676 Y-10.309 Z5.460 F4800.000 A335.389 (d: 2.93799)
G1 X3.676 Y-11.929 Z5.460 F4800.000 A335.452 (d: 2.451)
G1 X4.085 Y-11.929 Z5.460 F4800.000 A335.467 (d: 2.8595)
G1 X4.085 Y1.009 Z5.460 F4800.000 A335.970 (d: 13.2502)
G1 X8.170 Y1.009 Z5.460 F4800.000 A336.128 (d: 14.6839)
G1 X8.170 Y-11.929 Z5.460 F4800.000 A336.631 (d: 6.9445)
G1 X7.761 Y-11.929 Z5.460 F4800.000 A336.646 (d: 6.536)
G1 X7.761 Y-10.309 Z5.460 F4800.000 A336.709 (d: 6.73377)
G1 X7.353 Y-10.309 Z5.460 F4800.000 A336.725 (d: 6.33803)
G1 X7.353 Y-11.929 Z5.460 F4800.000 A336.788 (d: 6.1275)
G1 X6.944 Y-11.929 Z5.460 F4800.000 A336.804 (d: 5.719)
G1 X6.944 Y-10.309 Z5.460 F4800.000 A336.867 (d: 5.94402)
G1 X6.536 Y-10.309 Z5.460 F4800.000 A336.883 (d: 5.5521)
G1 X6.536 Y-11.929 Z5.460 F4800.000 A336.946 (d: 5.3105)
G1 X6.127 Y-11.929 Z5.460 F4800.000 A336.961 (d: 4.902)
G1 X6.127 Y-10.309 Z5.460 F4800.000 A337.024 (d: 5.16275)
G1 X5.719 Y-10.309 Z5.460 F4800.000 A337.040 (d: 4.7766)
G1 X5.719 Y-11.929 Z5.460 F4800.000 A337.103 (d: 4.4935)
G1 X5.310 Y-11.929 Z5.460 F4800.000 A337.119 (d: 4.085)
G1 X5.310 Y-10.309 Z5.460 F4800.000 A337.182 (d: 4.3945)
G1 X4.902 Y-10.309 Z5.460 F4800.000 A337.198 (d: 4.01759)
G1 X4.902 Y-11.929 Z5.460 F4800.000 A337.261 (d: 3.6765)
G1 X4.494 Y-11.929 Z5.460 F4800.000 A337.276 (d: 3.268)
G1 X4.494 Y-10.309 Z5.460 F4800.000 A337.339 (d: 3.6475)
G1 X8.579 Y-10.309 Z5.460 F4800.000 A337.498 (d: 7.52934)
G1 X8.579 Y-11.929 Z5.460 F4800.000 A337.561 (d: 7.353)
G1 X8.987 Y-11.929 Z5.460 F4800.000 A337.577 (d: 7.7615)
G1 X8.987 Y-10.309 Z5.460 F4800.000 A337.640 (d: 7.92876)
G1 X9.396 Y-10.309 Z5.460 F4800.000 A337.655 (d: 8.32906)
G1 X9.396 Y-11.929 Z5.460 F4800.000 A337.718 (d: 8.17)
G1 X9.804 Y-11.929 Z5.460 F4800.000 A337.734 (d: 8.5785)
G1 X9.804 Y-10.309 Z5.460 F4800.000 A337.797 (d: 8.73012)
G1 X10.212 Y-10.309 Z5.460 F4800.000 A337.813 (d: 9.13184)
G1 X10.212 Y-11.929 Z5.460 F4800.000 A337.876 (d: 8.987)
G1 X10.621 Y-11.929 Z5.460 F4800.000 A337.892 (d: 9.3955)
G1 X10.621 Y-10.309 Z5.460 F4800.000 A337.955 (d: 9.53414)
G1 X11.029 Y-10.309 Z5.460 F4800.000 A337.970 (d: 9.93694)
G1 X11.029 Y-11.929 Z5.460 F4800.000 A338.033 (d: 9.804)
G1 X11.438 Y-11.929 Z5.460 F4800.000 A338.049 (d: 10.2125)
G1 X11.438 Y-10.309 Z5.460 F4800.000 A338.112 (d: 10.3402)
G1 X11.846 Y-10.309 Z5.460 F4800.000 A338.128 (d: 10.7438)
G1 X11.846 Y-11.929 Z5.460 F4800.000 A338.191 (d: 10.621)
G1 X12.255 Y-11.929 Z5.460 F4800.000 A338.207 (d: 11.0295)
G1 X12.255 Y1.009 Z5.460 F4800.000 A338.709 (d: 17.0012)
G1 X16.340 Y1.009 Z5.460 F4800.000 A338.868 (d: 19.8957)
G1 X16.340 Y-11.929 Z5.460 F4800.000 A339.370 (d: 15.1145)
G1 X15.931 Y-11.929 Z5.460 F4800.000 A339.386 (d: 14.706)
G1 X15.931 Y-10.309 Z5.460 F4800.000 A339.449 (d: 14.795)
G1 X15.523 Y-10.309 Z5.460 F4800.000 A339.464 (d: 14.389)
G1 X15.523 Y-11.929 Z5.460 F4800.000 A339.527 (d: 14.2975)
G1 X15.114 Y-11.929 Z5.460 F4800.000 A339.543 (d: 13.889)
G1 X15.114 Y-10.309 Z5.460 F4800.000 A339.606 (d: 13.9832)
G1 X14.706 Y-10.309 Z5.460 F4800.000 A339.622 (d: 13.5775)
G1 X14.706 Y-11.929 Z5.460 F4800.000 A339.685 (d: 13.4805)
G1 X14.297 Y-11.929 Z5.460 F4800.000 A339.701 (d: 13.072)
G1 X14.297 Y-10.309 Z5.460 F4800.000 A339.764 (d: 13.172)
G1 X13.889 Y-10.309 Z5.460 F4800.000 A339.779 (d: 12.7667)
G1 X13.889 Y-11.929 Z5.460 F4800.000 A339.842 (d: 12.6635)
G1 X13.480 Y-11.929 Z5.460 F4800.000 A339.858 (d: 12.255)
G1 X13.480 Y-10.309 Z5.460 F4800.000 A339.921 (d: 12.3616)
G1 X13.072 Y-10.309 Z5.460 F4800.000 A339.937 (d: 11.9568)
G1 X13.072 Y-11.929 Z5.460 F4800.000 A340.000 (d: 11.8465)
G1 X12.663 Y-11.929 Z5.460 F4800.000 A340.016 (d: 11.438)
G1 X12.663 Y-10.309 Z5.460 F4800.000 A340.079 (d: 11.5522)
G1 X16.748 Y-10.309 Z5.460 F4800.000 A340.237 (d: 15.6073)
G1 X16.748 Y-11.929 Z5.460 F4800.000 A340.300 (d: 15.523)
G1 X17.157 Y-11.929 Z5.460 F4800.000 A340.316 (d: 15.9315)
G1 X17.157 Y-10.309 Z5.460 F4800.000 A340.379 (d: 16.0137)
G1 X17.566 Y-10.309 Z5.460 F4800.000 A340.395 (d: 16.4201)
G1 X17.566 Y-11.929 Z5.460 F4800.000 A340.458 (d: 16.34)
G1 X17.974 Y-11.929 Z5.460 F4800.000 A340.473 (d: 16.7485)
G1 X17.974 Y-10.309 Z5.460 F4800.000 A340.536 (d: 16.8267)
G1 X18.383 Y-10.309 Z5.460 F4800.000 A340.552 (d: 17.2333)
G1 X18.383 Y-11.929 Z5.460 F4800.000 A340.615 (d: 17.157)
G1 X18.791 Y-11.929 Z5.460 F4800.000 A340.631 (d: 17.5655)
G1 X18.791 Y-10.309 Z5.460 F4800.000 A340.694 (d: 17.64)
G1 X19.200 Y-10.309 Z5.460 F4800.000 A340.710 (d: 18.0469)
G1 X19.200 Y-11.929 Z5.460 F4800.000 A340.773 (d: 17.974)
G1 F798.000 A340.273 (snort)

(Slice 20, 1 Extruder)
G1 Z5.730 F500.000 (move Z)
(   Extruder 0)
( extruder 0 )
( GSWITCH T0 )
( TODO: add offset management to Gantry )

(inset 0/2 )
(  path 0/1, 5 points,  )
G1 X0.215 Y-12.586 Z5.730 F6000.000 (move into position)
G1 F798.000 A340.773 (squirt)
G1 X0.215 Y1.126 Z5.730 F4800.000 A341.305 (d: 13.712)
G1 X19.785 Y1.126 Z5.730 F4800.000 A342.065 (d: 23.8957)
G1 X19.785 Y-12.586 Z5.730 F4800.000 A342.597 (d: 19.57)
G1 X0.215 Y-12.586 Z5.730 F4800.000 A343.357 (d: 0)
G1 F798.000 A342.857 (snort)

(inset 1/2 )
(  path 0/1, 5 points,  )
G1 X0.602 Y-12.199 Z5.730 F6000.000 (move into position)
G1 F798.000 A343.357 (squirt)
G1 X0.602 Y0.739 Z5.730 F4800.000 A343.859 (d: 12.938)
G1 X19.398 Y0.739 Z5.730 F4800.000 A344.589 (d: 22.8184)
G1 X19.398 Y-12.199 Z5.730 F4800.000 A345.091 (d: 18.796)
G1 X0.602 Y-12.199 Z5.730 F4800.000 A345.821 (d: 0)
G1 F798.000 A345.321 (snort)

(infills: 1)
(  path 0/1, 20 points,  )
G1 X0.602 Y-11.662 Z5.730 F6000.000 (move into position)
G1 F798.000 A345.821 (squirt)
G1 X19.398 Y-11.662 Z5.730 F4800.000 A346.550 (d: 18.796)
G1 X19.398 Y-12.071 Z5.730 F4800.000 A346.566 (d: 18.8004)
G1 X0.602 Y-12.071 Z5.730 F4800.000 A347.296 (d: 0.4085)
G1 X0.602 Y-11.254 Z5.730 F4800.000 A347.327 (d: 0.4085)
G1 X19.398 Y-11.254 Z5.730 F4800.000 A348.057 (d: 18.8004)
G1 X19.398 Y-10.845 Z5.730 F4800.000 A348.073 (d: 18.8137)
G1 X0.602 Y-10.845 Z5.730 F4800.000 A348.803 (d: 0.817)
G1 X0.602 Y-6.760 Z5.730 F4800.000 A348.961 (d: 4.902)
G1 X19.398 Y-6.760 Z5.730 F4800.000 A349.691 (d: 19.4247)
G1 X19.398 Y-2.675 Z5.730 F4800.000 A349.850 (d: 20.834)
G1 X0.602 Y-2.675 Z5.730 F4800.000 A350.579 (d: 8.987)
G1 X0.602 Y-0.633 Z5.730 F4800.000 A350.659 (d: 11.0295)
G1 X19.398 Y-0.633 Z5.730 F4800.000 A351.388 (d: 21.7931)
G1 X19.398 Y-0.224 Z5.730 F4800.000 A351.404 (d: 22.0027)
G1 X0.602 Y-0.224 Z5.730 F4800.000 A352.134 (d: 11.438)
G1 X0.602 Y0.184 Z5.730 F4800.000 A352.150 (d: 11.8465)
G1 X19.398 Y0.184 Z5.730 F4800.000 A352.879 (d: 22.2178)
G1 X19.398 Y0.593 Z5.730 F4800.000 A352.895 (d: 22.4382)
G1 X0.602 Y0.593 Z5.730 F4800.000 A353.625 (d: 12.255)
G1 F798.000 A353.125 (snort)

(Slice 21, 1 Extruder)
G1 Z6.000 F500.000 (move Z)
(   Extruder 0)
( extruder 0 )
( GSWITCH T0 )
( TODO: add offset management to Gantry )

(inset 0/2 )
(  path 0/1, 5 points,  )
G1 X0.215 Y-12.856 Z6.000 F6000.000 (move into position)
G1 F798.000 A353.625 (squirt)
G1 X0.215 Y0.856 Z6.000 F4800.000 A354.157 (d: 13.712)
G1 X19.785 Y0.856 Z6.000 F4800.000 A354.917 (d: 23.8957)
G1 X19.785 Y-12.856 Z6.000 F4800.000 A355.449 (d: 19.57)
G1 X0.215 Y-12.856 Z6.000 F4800.000 A356.209 (d: 0)
G1 F798.000 A355.709 (snort)

(inset 1/2 )
(  path 0/1, 5 points,  )
G1 X0.602 Y-12.469 Z6.000 F6000.000 (move into position)
G1 F798.000 A356.209 (squirt)
G1 X0.602 Y0.469 Z6.000 F4800.000 A356.711 (d: 12.938)
G1 X19.398 Y0.469 Z6.000 F4800.000 A357.441 (d: 22.8184)
G1 X19.398 Y-12.469 Z6.000 F4800.000 A357.943 (d: 18.796)
G1 X0.602 Y-12.469 Z6.000 F4800.000 A358.673 (d: 0)
G1 F798.000 A358.173 (snort)

(infills: 1)
(  path 0/1, 92 points,  )
G1 X1.225 Y-12.469 Z6.000 F6000.000 (move into position)
G1 F798.000 A358.673 (squirt)
G1 X1.225 Y-10.849 Z6.000 F4800.000 A358.736 (d: 1.62)
G1 X0.817 Y-10.849 Z6.000 F4800.000 A358.752 (d: 1.67071)
G1 X0.817 Y-12.469 Z6.000 F4800.000 A358.814 (d: 0.4085)
G1 X1.634 Y-12.469 Z6.000 F4800.000 A358.846 (d: 0.4085)
G1 X1.634 Y-10.849 Z6.000 F4800.000 A358.909 (d: 1.67071)
G1 X2.042 Y-10.849 Z6.000 F4800.000 A358.925 (d: 1.81436)
G1 X2.042 Y-12.469 Z6.000 F4800.000 A358.988 (d: 0.817)
G1 X2.451 Y-12.469 Z6.000 F4800.000 A359.004 (d: 1.2255)
G1 X2.451 Y-10.849 Z6.000 F4800.000 A359.067 (d: 2.03132)
G1 X2.859 Y-10.849 Z6.000 F4800.000 A359.082 (d: 2.30095)
G1 X2.859 Y-12.469 Z6.000 F4800.000 A359.145 (d: 1.634)
G1 X3.268 Y-12.469 Z6.000 F4800.000 A359.161 (d: 2.0425)
G1 X3.268 Y-10.849 Z6.000 F4800.000 A359.224 (d: 2.60695)
G1 X3.676 Y-10.849 Z6.000 F4800.000 A359.240 (d: 2.93799)
G1 X3.676 Y-12.469 Z6.000 F4800.000 A359.303 (d: 2.451)
G1 X4.085 Y-12.469 Z6.000 F4800.000 A359.319 (d: 2.8595)
G1 X4.085 Y0.469 Z6.000 F4800.000 A359.821 (d: 13.2502)
G1 X8.170 Y0.469 Z6.000 F4800.000 A359.980 (d: 14.6839)
G1 X8.170 Y-12.469 Z6.000 F4800.000 A360.482 (d: 6.9445)
G1 X7.761 Y-12.469 Z6.000 F4800.000 A360.498 (d: 6.536)
G1 X7.761 Y-10.849 Z6.000 F4800.000 A360.561 (d: 6.73377)
G1 X7.353 Y-10.849 Z6.000 F4800.000 A360.576 (d: 6.33803)
G1 X7.353 Y-12.469 Z6.000 F4800.000 A360.639 (d: 6.1275)
G1 X6.944 Y-12.469 Z6.000 F4800.000 A360.655 (d: 5.719)
G1 X6.944 Y-10.849 Z6.000 F4800.000 A360.718 (d: 5.94402)
G1 X6.536 Y-10.849 Z6.000 F4800.000 A360.734 (d: 5.5521)
G1 X6.536 Y-12.469 Z6.000 F4800.000 A360.797 (d: 5.3105)
G1 X6.127 Y-12.469 Z6.000 F4800.000 A360.813 (d: 4.902)
G1 X6.127 Y-10.849 Z6.000 F4800.000 A360.876 (d: 5.16275)
G1 X5.719 Y-10.849 Z6.000 F4800.000 A360.891 (d: 4.7766)
G1 X5.719 Y-12.469 Z6.000 F4800.000 A360.954 (d: 4.4935)
G1 X5.310 Y-12.469 Z6.000 F4800.000 A360.970 (d: 4.085)
G1 X5.310 Y-10.849 Z6.000 F4800.000 A361.033 (d: 4.3945)
G1 X4.902 Y-10.849 Z6.000 F4800.000 A361.049 (d: 4.01759)
G1 X4.902 Y-12.469 Z6.000 F4800.000 A361.112 (d: 3.6765)
G1 X4.494 Y-12.469 Z6.000 F4800.000 A361.128 (d: 3.268)
G1 X4.494 Y-10.849 Z6.000 F4800.000 A361.191 (d: 3.6475)
G1 X8.579 Y-10.849 Z6.000 F4800.000 A361.349 (d: 7.52934)
G1 X8.579 Y-12.469 Z6.000 F4800.000 A361.412 (d: 7.353)
G1 X8.987 Y-12.469 Z6.000 F4800.000 A361.428 (d: 7.7615)
G1 X8.987 Y-10.849 Z6.000 F4800.000 A361.491 (d: 7.92876)
G1 X9.396 Y-10.849 Z6.000 F4800.000 A361.507 (d: 8.32906)
G1 X9.396 Y-12.469 Z6.000 F4800.000 A361.570 (d: 8.17)
G1 X9.804 Y-12.469 Z6.000 F4800.000 A361.585 (d: 8.5785)
G1 X9.804 Y-10.849 Z6.000 F4800.000 A361.648 (d: 8.73012)
G1 X10.212 Y-10.849 Z6.000 F4800.000 A361.664 (d: 9.13184)
G1 X10.212 Y-12.469 Z6.000 F4800.000 A361.727 (d: 8.987)
G1 X10.621 Y-12.469 Z6.000 F4800.000 A361.743 (d: 9.3955)
G1 X10.621 Y-10.849 Z6.000 F4800.000 A361.806 (d: 9.53414)
G1 X11.029 Y-10.849 Z6.000 F4800.000 A361.822 (d: 9.93694)
G1 X11.029 Y-12.469 Z6.000 F4800.000 A361.885 (d: 9.804)
G1 X11.438 Y-12.469 Z6.000 F4800.000 A361.900 (d: 10.2125)
G1 X11.438 Y-10.849 Z6.000 F4800.000 A361.963 (d: 10.3402)
G1 X11.846 Y-10.849 Z6.000 F4800.000 A361.979 (d: 10.7438)
G1 X11.846 Y-12.469 Z6.000 F4800.000 A362.042 (d: 10.621)
G1 X12.255 Y-12.469 Z6.000 F4800.000 A362.058 (d: 11.0295)
G1 X12.255 Y0.469 Z6.000 F4800.000 A362.560 (d: 17.0012)
G1 X16.340 Y0.469 Z6.000 F4800.000 A362.719 (d: 19.8957)
G1 X16.340 Y-12.469 Z6.000 F4800.000 A363.221 (d: 15.1145)
G1 X15.931 Y-12.469 Z6.000 F4800.000 A363.237 (d: 14.706)
G1 X15.931 Y-10.849 Z6.000 F4800.000 A363.300 (d: 14.795)
G1 X15.523 Y-10.849 Z6.000 F4800.000 A363.316 (d: 14.389)
G1 X15.523 Y-12.469 Z6.000 F4800.000 A363.378 (d: 14.2975)
G1 X15.114 Y-12.469 Z6.000 F4800.000 A363.394 (d: 13.889)
G1 X15.114 Y-10.849 Z6.000 F4800.000 A363.457 (d: 13.9832)
G1 X14.706 Y-10.849 Z6.000 F4800.000 A363.473 (d: 13.5775)
G1 X14.706 Y-12.469 Z6.000 F4800.000 A363.536 (d: 13.4805)
G1 X14.297 Y-12.469 Z6.000 F4800.000 A363.552 (d: 13.072)
G1 X14.297 Y-10.849 Z6.000 F4800.000 A363.615 (d: 13.172)
G1 X13.889 Y-10.849 Z6.000 F4800.000 A363.631 (d: 12.7667)
G1 X13.889 Y-12.469 Z6.000 F4800.000 A363.693 (d: 12.6635)
G1 X13.480 Y-12.469 Z6.000 F4800.000 A363.709 (d: 12.255)
G1 X13.480 Y-10.849 Z6.000 F4800.000 A363.772 (d: 12.3616)
G1 X13.072 Y-10.849 Z6.000 F4800.000 A363.788 (d: 11.9568)
G1 X13.072 Y-12.469 Z6.000 F4800.000 A363.851 (d: 11.8465)
G1 X12.663 Y-12.469 Z6.000 F4800.000 A363.867 (d: 11.438)
G1 X12.663 Y-10.849 Z6.000 F4800.000 A363.930 (d: 11.5522)
G1 X16.748 Y-10.849 Z6.000 F4800.000 A364.088 (d: 15.6073)
G1 X16.748 Y-12.469 Z6.000 F4800.000 A364.151 (d: 15.523)
G1 X17.157 Y-12.469 Z6.000 F4800.000 A364.167 (d: 15.9315)
G1 X17.157 Y-10.849 Z6.000 F4800.000 A364.230 (d: 16.0137)
