M135 T0

(Makerbot Industries)
(This file contains digital fabrication directives in gcode format)
(For your 3D printer)
(http://wiki.makerbot.com/gcode)
(* Generated by MiracleGrue Turboencabulator 2.0.0)
(* 2013-3-1 9:7:32)
(* /tmp/tmp169VDX.thing/UNIFIED_MESH_HACK_0.stl)
(* 2 extruder)
(* Extrude infills: 1)
(* Extrude insets: 1)
(* Extrude outlines: 0)

M135 T0
G1 X-105.400 Y-74.000 Z0.270 F1800.000 (Right Purge Start)
G1 X105.400 Y-74.000 Z0.270 F1800.000 A25.000 (Right Purge)
M135 T1
G1 X105.400 Y-73.500 Z0.270 F1800.000 (Left Purge Start)
G1 X-105.400 Y-73.500 Z0.270 F1800.000 B25.000 (Left Purge)
G92 A0 B0 (Reset after purge)
M135 T1
G1 B-19 F300
G92 B0
M135 T0
G1 X-110.400 Y-74.000 Z0.270 F1800.000 (Anchor Start)
G1 F1200.000 A1.000 (squirt)
G1 X-11.011 Y-11.048 Z0.270 F1800.000 A12.721 (Anchor End)
(Slice 0, 1 Extruder)
M135 T0
G1 X-11.011 Y-11.048 Z0.27
(Layer Height: 	0.270)
(Layer Width: 	0.400)
G1 Z0.270 F1380.000 (move Z)
G1 F1200.000 A11.721 (snort)
G1 F1200.000 A12.721 (squirt)
G1 X-9.011 Y-12.747 Z0.270 F1800.000 A12.842 (d: 2.62508)
G1 X-8.293 Y-13.204 Z0.270 F1800.000 A12.881 (d: 0.850608)
G1 X-6.333 Y-14.261 Z0.270 F1800.000 A12.983 (d: 2.22722)
G1 X-4.114 Y-15.048 Z0.270 F1800.000 A13.091 (d: 2.35436)
G1 X17.016 Y18.584 Z0.270 F1800.000 A111.107 (d: 34.0429)
G1 X15.988 Y19.008 Z0.270 F1800.000 A111.158 (d: 1.1115)
G1 X-15.840 Y19.008 Z0.270 F1800.000 A112.620 (d: 31.8284)
G1 F300.000000 A92.620000


(Slice 1, 1 Extruder)
M135 T1
G1 F300.000000 B19.000000
G92 B0

(Makerbot Industries)
(This file contains digital fabrication directives in gcode format)
(For your 3D printer)
(http://wiki.makerbot.com/gcode)
(* Generated by MiracleGrue Turboencabulator 2.0.0)
(* 2013-3-1 9:7:33)
(* /tmp/tmp169VDX.thing/UNIFIED_MESH_HACK_1.stl)
(* 2 extruder)
(* Extrude infills: 1)
(* Extrude insets: 1)
(* Extrude outlines: 0)

G1 X-110.400 Y-74.000 Z0.270 F1800.000 (Anchor Start)
G1 F1200.000 B1.000 (squirt)

G1 X-10.352 Y-9.396 Z0.270 F1800.000 B12.865 (Anchor End)
(Slice 0, 1 Extruder)
M135 T1
G1 X-10.352 Y-9.396 Z0.27
(Layer Height: 	0.270)
(Layer Width: 	0.400)
G1 Z0.270 F1380.000 (move Z)
G1 F1200.000 B11.865 (snort)
G1 F1200.000 B12.865 (squirt)
G1 X-8.872 Y-10.804 Z0.270 F1800.000 B12.959 (d: 2.04339)
G1 X-7.286 Y-11.929 Z0.270 F1800.000 B13.048 (d: 1.94447)
G1 X-5.469 Y-12.864 Z0.270 F1800.000 B13.142 (d: 2.04331)
G1 X-3.622 Y-13.498 Z0.270 F1800.000 B13.232 (d: 1.95226)
G1 X-5.881 Y-13.594 Z0.270 F1800.000 B29.034 (d: 1.96742)
G1 X-7.725 Y-12.641 Z0.270 F1800.000 B29.129 (d: 2.07535)
G1 X-9.331 Y-11.505 Z0.270 F1800.000 B29.219 (d: 1.96709)
G1 X-10.849 Y-10.091 Z0.270 F1800.000 B29.314 (d: 2.07527)
G1 F1200.000 B28.314 (snort)


(Slice 1, 1 Extruder)
M135 T1
G1 X-10.849 Y-10.091 Z0.54
(Layer Height: 	0.270)
(Layer Width: 	0.400)
G1 Z0.540 F1380.000 (move Z)
M73 P1.0 (progress (1.0%))
G1 X-9.307 Y-10.376 Z0.540 F6000.000 (move into position)
G1 F1200.000 B29.314 (squirt)
G1 X-7.845 Y-11.474 Z0.540 F4800.000 B29.398 (d: 1.82792)
G1 X-6.007 Y-12.575 Z0.540 F4800.000 B29.497 (d: 2.14319)
G1 X-4.295 Y-13.217 Z0.540 F4800.000 B29.581 (d: 1.82802)
G1 X-7.195 Y-12.967 Z0.540 F2400.000 B45.584 (d: 2.18293)
G1 X-8.748 Y-11.937 Z0.540 F2400.000 B45.670 (d: 1.8632)
G1 X-9.799 Y-11.099 Z0.540 F2400.000 B45.731 (d: 1.34445)
G1 F300.000000 B26.731000



(Slice 2, 1 Extruder)
M135 T0
G1 X-15.84 Y19.008 Z0.54
(Layer Height: 	0.270)
(Layer Width: 	0.400)
G1 Z0.540 F1380.000 (move Z)
G1 X-10.800 Y-11.241 Z0.540 F6000.000 (move into position)
G1 F300.000000 A111.620000
G92 A112.620000
M135 T1
G92 B0
G1 F300.000000 B19.000000
G92 B0
